(G-CODE GENERATED BY FLATCAM v8.991 - www.flatcam.org - Version Date: 2019/12/27)

(Name: PCB1.GBL_ncc_cnc)
(Type: G-code from Geometry)
(Units: MM)

(Created on Sunday, 21 March 2021 at 17:01)

(TOOL DIAMETER: 0.2 mm)
(Feedrate: 150.0 mm/min)
(Feedrate_Z: 60.0 mm/min)
(Feedrate rapids 1500.0 mm/min)

(Z_Cut: -0.06 mm)
(Z_Move: 2.0 mm)
(Z Toolchange: 15.0 mm)
(X,Y Toolchange: 0.0000, 0.0000 mm)
(Z Start: None mm)
(Z End: 15.0 mm)
(Steps per circle: 64)
(Preprocessor Geometry: default)

(X range:   -0.3923 ...   88.5300  mm)
(Y range:    0.3700 ...   33.9200  mm)

(Spindle Speed: 600 RPM)
G21
G90
G94




G01 F150.00
G00 Z2.0000

M03 S600
G00 X4.8600 Y5.7939
G01 F60.00
G01 Z-0.0500
G01 F150.00
G01 X4.8798 Y5.7675
G01 X4.8980 Y5.7453
G01 X4.9187 Y5.7220
G01 X4.9393 Y5.7010
G01 X4.9564 Y5.6847
G01 X4.9792 Y5.6646
G01 X5.0027 Y5.6457
G01 X5.0240 Y5.6299
G01 X4.8600 Y5.6299
G01 X4.8600 Y5.7939
G00 Z2.0000
G00 X7.8360 Y5.6299
G01 F60.00
G01 Z-0.0500
G01 F150.00
G01 X7.8573 Y5.6457
G01 X7.8808 Y5.6646
G01 X7.9037 Y5.6847
G01 X7.9207 Y5.7010
G01 X7.9413 Y5.7220
G01 X7.9621 Y5.7453
G01 X7.9803 Y5.7675
G01 X8.0000 Y5.7939
G01 X8.0000 Y5.6299
G01 X7.8360 Y5.6299
G00 Z2.0000
G00 X10.8600 Y5.7939
G01 F60.00
G01 Z-0.0500
G01 F150.00
G01 X10.8798 Y5.7675
G01 X10.8980 Y5.7453
G01 X10.9187 Y5.7220
G01 X10.9393 Y5.7010
G01 X10.9564 Y5.6847
G01 X10.9792 Y5.6646
G01 X11.0027 Y5.6457
G01 X11.0240 Y5.6299
G01 X10.8600 Y5.6299
G01 X10.8600 Y5.7939
G00 Z2.0000
G00 X10.5662 Y8.5100
G01 F60.00
G01 Z-0.0500
G01 F150.00
G01 X10.7300 Y8.5100
G01 X10.7300 Y8.3462
G01 X10.7139 Y8.3679
G01 X10.6954 Y8.3908
G01 X10.6753 Y8.4137
G01 X10.6590 Y8.4307
G01 X10.6380 Y8.4513
G01 X10.6147 Y8.4721
G01 X10.5925 Y8.4903
G01 X10.5662 Y8.5100
G00 Z2.0000
G00 X11.4300 Y9.3000
G01 F60.00
G01 Z-0.0500
G01 F150.00
G01 X11.4202 Y9.2995
G01 X11.4105 Y9.2981
G01 X11.4010 Y9.2957
G01 X11.3917 Y9.2924
G01 X11.3829 Y9.2882
G01 X11.3744 Y9.2832
G01 X11.3666 Y9.2773
G01 X11.3593 Y9.2707
G01 X11.3527 Y9.2634
G01 X11.3469 Y9.2556
G01 X11.3418 Y9.2471
G01 X11.3376 Y9.2383
G01 X11.3343 Y9.2290
G01 X11.3319 Y9.2195
G01 X11.3305 Y9.2098
G01 X11.3300 Y9.2000
G01 X11.3300 Y6.2000
G01 X11.3305 Y6.1902
G01 X11.3319 Y6.1805
G01 X11.3343 Y6.1710
G01 X11.3376 Y6.1617
G01 X11.3418 Y6.1529
G01 X11.3469 Y6.1445
G01 X11.3527 Y6.1366
G01 X11.3593 Y6.1293
G01 X11.3666 Y6.1227
G01 X11.3744 Y6.1169
G01 X11.3829 Y6.1118
G01 X11.3917 Y6.1076
G01 X11.4010 Y6.1043
G01 X11.4105 Y6.1019
G01 X11.4202 Y6.1005
G01 X11.4300 Y6.1000
G01 X13.1698 Y6.1000
G01 X15.8935 Y3.3765
G01 X15.9304 Y3.3430
G01 X15.9380 Y3.3368
G01 X15.9781 Y3.3071
G01 X15.9862 Y3.3016
G01 X16.0290 Y3.2760
G01 X16.0377 Y3.2714
G01 X16.0828 Y3.2500
G01 X16.0918 Y3.2463
G01 X16.1388 Y3.2295
G01 X16.1482 Y3.2266
G01 X16.1966 Y3.2145
G01 X16.2062 Y3.2126
G01 X16.2555 Y3.2053
G01 X16.2653 Y3.2043
G01 X16.3200 Y3.2017
G01 X24.1300 Y3.2017
G01 X24.1847 Y3.2043
G01 X24.1945 Y3.2053
G01 X24.2438 Y3.2126
G01 X24.2535 Y3.2145
G01 X24.3018 Y3.2266
G01 X24.3112 Y3.2295
G01 X24.3582 Y3.2463
G01 X24.3673 Y3.2500
G01 X24.4123 Y3.2714
G01 X24.4210 Y3.2760
G01 X24.4638 Y3.3016
G01 X24.4719 Y3.3071
G01 X24.5120 Y3.3368
G01 X24.5196 Y3.3430
G01 X24.5601 Y3.3799
G01 X26.5601 Y5.3799
G01 X26.5970 Y5.4204
G01 X26.6032 Y5.4280
G01 X26.6329 Y5.4681
G01 X26.6384 Y5.4762
G01 X26.6640 Y5.5190
G01 X26.6686 Y5.5277
G01 X26.6900 Y5.5727
G01 X26.6937 Y5.5818
G01 X26.7105 Y5.6288
G01 X26.7134 Y5.6382
G01 X26.7255 Y5.6865
G01 X26.7274 Y5.6962
G01 X26.7347 Y5.7455
G01 X26.7355 Y5.7536
G01 X26.7839 Y5.8070
G01 X26.7901 Y5.8146
G01 X26.8340 Y5.8737
G01 X26.8394 Y5.8819
G01 X26.8773 Y5.9450
G01 X26.8819 Y5.9537
G01 X26.9134 Y6.0202
G01 X26.9171 Y6.0293
G01 X26.9419 Y6.0986
G01 X26.9448 Y6.1080
G01 X26.9626 Y6.1794
G01 X26.9646 Y6.1890
G01 X26.9754 Y6.2618
G01 X26.9763 Y6.2716
G01 X26.9799 Y6.3451
G01 X26.9799 Y6.3549
G01 X26.9763 Y6.4284
G01 X26.9754 Y6.4382
G01 X26.9646 Y6.5110
G01 X26.9626 Y6.5206
G01 X26.9448 Y6.5920
G01 X26.9419 Y6.6014
G01 X26.9171 Y6.6707
G01 X26.9134 Y6.6798
G01 X26.8819 Y6.7463
G01 X26.8773 Y6.7550
G01 X26.8394 Y6.8181
G01 X26.8340 Y6.8263
G01 X26.7901 Y6.8854
G01 X26.7839 Y6.8930
G01 X26.7345 Y6.9475
G01 X26.7275 Y6.9545
G01 X26.6730 Y7.0039
G01 X26.6654 Y7.0101
G01 X26.6063 Y7.0540
G01 X26.5981 Y7.0594
G01 X26.5350 Y7.0973
G01 X26.5263 Y7.1019
G01 X26.4598 Y7.1334
G01 X26.4507 Y7.1371
G01 X26.3814 Y7.1619
G01 X26.3720 Y7.1648
G01 X26.3006 Y7.1827
G01 X26.2910 Y7.1846
G01 X26.2182 Y7.1954
G01 X26.2084 Y7.1963
G01 X26.1349 Y7.1999
G01 X26.1251 Y7.1999
G01 X26.0516 Y7.1963
G01 X26.0418 Y7.1954
G01 X25.9690 Y7.1846
G01 X25.9594 Y7.1827
G01 X25.8880 Y7.1648
G01 X25.8786 Y7.1619
G01 X25.8093 Y7.1371
G01 X25.8002 Y7.1334
G01 X25.7337 Y7.1019
G01 X25.7250 Y7.0973
G01 X25.6619 Y7.0594
G01 X25.6537 Y7.0540
G01 X25.5946 Y7.0101
G01 X25.5870 Y7.0039
G01 X25.5325 Y6.9545
G01 X25.5255 Y6.9475
G01 X25.4761 Y6.8930
G01 X25.4699 Y6.8854
G01 X25.4260 Y6.8263
G01 X25.4206 Y6.8181
G01 X25.3827 Y6.7550
G01 X25.3781 Y6.7463
G01 X25.3466 Y6.6798
G01 X25.3429 Y6.6707
G01 X25.3181 Y6.6014
G01 X25.3152 Y6.5920
G01 X25.2973 Y6.5206
G01 X25.2954 Y6.5110
G01 X25.2846 Y6.4382
G01 X25.2837 Y6.4284
G01 X25.2801 Y6.3549
G01 X25.2801 Y6.3451
G01 X25.2837 Y6.2716
G01 X25.2846 Y6.2618
G01 X25.2954 Y6.1890
G01 X25.2973 Y6.1794
G01 X25.3152 Y6.1080
G01 X25.3181 Y6.0986
G01 X25.3429 Y6.0293
G01 X25.3466 Y6.0202
G01 X25.3781 Y5.9537
G01 X25.3827 Y5.9450
G01 X25.3910 Y5.9312
G01 X23.8781 Y4.4183
G01 X16.5720 Y4.4183
G01 X13.5300 Y7.4602
G01 X13.5300 Y9.2000
G01 X13.5295 Y9.2098
G01 X13.5281 Y9.2195
G01 X13.5257 Y9.2290
G01 X13.5224 Y9.2383
G01 X13.5182 Y9.2471
G01 X13.5131 Y9.2556
G01 X13.5073 Y9.2634
G01 X13.5007 Y9.2707
G01 X13.4934 Y9.2773
G01 X13.4856 Y9.2832
G01 X13.4771 Y9.2882
G01 X13.4683 Y9.2924
G01 X13.4590 Y9.2957
G01 X13.4495 Y9.2981
G01 X13.4398 Y9.2995
G01 X13.4300 Y9.3000
G01 X11.4300 Y9.3000
G01 X11.4300 Y9.4200
G01 X11.4143 Y9.4194
G01 X11.4026 Y9.4182
G01 X11.3929 Y9.4168
G01 X11.3813 Y9.4145
G01 X11.3718 Y9.4121
G01 X11.3605 Y9.4087
G01 X11.3513 Y9.4054
G01 X11.3404 Y9.4009
G01 X11.3316 Y9.3967
G01 X11.3212 Y9.3911
G01 X11.3128 Y9.3861
G01 X11.3030 Y9.3795
G01 X11.2951 Y9.3737
G01 X11.2860 Y9.3662
G01 X11.2787 Y9.3596
G01 X11.2704 Y9.3513
G01 X11.2638 Y9.3440
G01 X11.2563 Y9.3349
G01 X11.2505 Y9.3270
G01 X11.2439 Y9.3173
G01 X11.2389 Y9.3088
G01 X11.2333 Y9.2985
G01 X11.2291 Y9.2896
G01 X11.2246 Y9.2787
G01 X11.2213 Y9.2695
G01 X11.2179 Y9.2582
G01 X11.2155 Y9.2487
G01 X11.2132 Y9.2371
G01 X11.2118 Y9.2274
G01 X11.2106 Y9.2157
G01 X11.2100 Y9.2000
G01 X11.2100 Y6.2000
G01 X11.2106 Y6.1843
G01 X11.2118 Y6.1726
G01 X11.2132 Y6.1629
G01 X11.2155 Y6.1513
G01 X11.2179 Y6.1418
G01 X11.2213 Y6.1306
G01 X11.2246 Y6.1213
G01 X11.2291 Y6.1104
G01 X11.2333 Y6.1016
G01 X11.2389 Y6.0912
G01 X11.2439 Y6.0828
G01 X11.2505 Y6.0730
G01 X11.2563 Y6.0651
G01 X11.2638 Y6.0560
G01 X11.2704 Y6.0487
G01 X11.2787 Y6.0404
G01 X11.2860 Y6.0338
G01 X11.2951 Y6.0263
G01 X11.3030 Y6.0205
G01 X11.3128 Y6.0139
G01 X11.3212 Y6.0089
G01 X11.3316 Y6.0033
G01 X11.3404 Y5.9991
G01 X11.3513 Y5.9946
G01 X11.3605 Y5.9913
G01 X11.3718 Y5.9879
G01 X11.3813 Y5.9855
G01 X11.3929 Y5.9832
G01 X11.4026 Y5.9818
G01 X11.4143 Y5.9806
G01 X11.4241 Y5.9802
G01 X13.1201 Y5.9800
G01 X15.8107 Y3.2896
G01 X15.8543 Y3.2503
G01 X15.8665 Y3.2404
G01 X15.9066 Y3.2107
G01 X15.9245 Y3.1987
G01 X15.9673 Y3.1731
G01 X15.9811 Y3.1655
G01 X16.0368 Y3.1392
G01 X16.0514 Y3.1333
G01 X16.0984 Y3.1165
G01 X16.1190 Y3.1102
G01 X16.1731 Y3.0968
G01 X16.1886 Y3.0939
G01 X16.2438 Y3.0859
G01 X16.2594 Y3.0845
G01 X16.3200 Y3.0817
G01 X24.1300 Y3.0817
G01 X24.1906 Y3.0845
G01 X24.2121 Y3.0866
G01 X24.2614 Y3.0939
G01 X24.2769 Y3.0968
G01 X24.3367 Y3.1118
G01 X24.3517 Y3.1165
G01 X24.3986 Y3.1333
G01 X24.4132 Y3.1392
G01 X24.4637 Y3.1629
G01 X24.4827 Y3.1731
G01 X24.5255 Y3.1987
G01 X24.5386 Y3.2073
G01 X24.5835 Y3.2404
G01 X24.6002 Y3.2541
G01 X24.6393 Y3.2896
G01 X26.6449 Y5.2950
G01 X26.6859 Y5.3398
G01 X26.6996 Y5.3565
G01 X26.7293 Y5.3966
G01 X26.7413 Y5.4145
G01 X26.7669 Y5.4573
G01 X26.7745 Y5.4711
G01 X26.7984 Y5.5214
G01 X26.8067 Y5.5414
G01 X26.8235 Y5.5883
G01 X26.8282 Y5.6033
G01 X26.8432 Y5.6631
G01 X26.8461 Y5.6786
G01 X26.8494 Y5.7006
G01 X26.8728 Y5.7264
G01 X26.8829 Y5.7385
G01 X26.9337 Y5.8071
G01 X26.9423 Y5.8202
G01 X26.9802 Y5.8833
G01 X26.9904 Y5.9024
G01 X27.0242 Y5.9743
G01 X27.0301 Y5.9888
G01 X27.0549 Y6.0582
G01 X27.0612 Y6.0788
G01 X27.0803 Y6.1560
G01 X27.0833 Y6.1714
G01 X27.0941 Y6.2442
G01 X27.0957 Y6.2598
G01 X27.0998 Y6.3392
G01 X27.0998 Y6.3608
G01 X27.0962 Y6.4343
G01 X27.0948 Y6.4500
G01 X27.0833 Y6.5286
G01 X27.0791 Y6.5498
G01 X27.0596 Y6.6269
G01 X27.0549 Y6.6418
G01 X27.0301 Y6.7112
G01 X27.0242 Y6.7257
G01 X26.9904 Y6.7976
G01 X26.9802 Y6.8167
G01 X26.9423 Y6.8798
G01 X26.9337 Y6.8929
G01 X26.8865 Y6.9569
G01 X26.8728 Y6.9736
G01 X26.8193 Y7.0324
G01 X26.8081 Y7.0434
G01 X26.7536 Y7.0928
G01 X26.7415 Y7.1029
G01 X26.6778 Y7.1504
G01 X26.6598 Y7.1624
G01 X26.5967 Y7.2002
G01 X26.5829 Y7.2077
G01 X26.5111 Y7.2418
G01 X26.4911 Y7.2501
G01 X26.4162 Y7.2767
G01 X26.4012 Y7.2812
G01 X26.3298 Y7.2991
G01 X26.3144 Y7.3023
G01 X26.2358 Y7.3141
G01 X26.2143 Y7.3162
G01 X26.1349 Y7.3199
G01 X26.1192 Y7.3198
G01 X26.0457 Y7.3162
G01 X26.0242 Y7.3141
G01 X25.9514 Y7.3033
G01 X25.9302 Y7.2991
G01 X25.8531 Y7.2796
G01 X25.8381 Y7.2749
G01 X25.7688 Y7.2501
G01 X25.7543 Y7.2442
G01 X25.6824 Y7.2104
G01 X25.6684 Y7.2031
G01 X25.6002 Y7.1624
G01 X25.5822 Y7.1504
G01 X25.5231 Y7.1065
G01 X25.5064 Y7.0928
G01 X25.4476 Y7.0393
G01 X25.4366 Y7.0281
G01 X25.3872 Y6.9736
G01 X25.3735 Y6.9569
G01 X25.3262 Y6.8929
G01 X25.3176 Y6.8798
G01 X25.2798 Y6.8167
G01 X25.2723 Y6.8029
G01 X25.2382 Y6.7311
G01 X25.2320 Y6.7166
G01 X25.2051 Y6.6418
G01 X25.1988 Y6.6212
G01 X25.1809 Y6.5498
G01 X25.1767 Y6.5286
G01 X25.1652 Y6.4500
G01 X25.1638 Y6.4343
G01 X25.1602 Y6.3608
G01 X25.1602 Y6.3392
G01 X25.1642 Y6.2598
G01 X25.1659 Y6.2442
G01 X25.1767 Y6.1714
G01 X25.1797 Y6.1560
G01 X25.1988 Y6.0788
G01 X25.2032 Y6.0637
G01 X25.2299 Y5.9888
G01 X25.2358 Y5.9743
G01 X25.2448 Y5.9548
G01 X23.8283 Y4.5383
G01 X16.6217 Y4.5383
G01 X13.6500 Y7.5099
G01 X13.6498 Y9.2059
G01 X13.6494 Y9.2157
G01 X13.6482 Y9.2274
G01 X13.6468 Y9.2371
G01 X13.6445 Y9.2487
G01 X13.6421 Y9.2582
G01 X13.6387 Y9.2695
G01 X13.6354 Y9.2787
G01 X13.6309 Y9.2896
G01 X13.6267 Y9.2985
G01 X13.6211 Y9.3088
G01 X13.6161 Y9.3173
G01 X13.6095 Y9.3270
G01 X13.6037 Y9.3349
G01 X13.5962 Y9.3440
G01 X13.5896 Y9.3513
G01 X13.5813 Y9.3596
G01 X13.5740 Y9.3662
G01 X13.5649 Y9.3737
G01 X13.5570 Y9.3795
G01 X13.5472 Y9.3861
G01 X13.5388 Y9.3911
G01 X13.5284 Y9.3967
G01 X13.5196 Y9.4009
G01 X13.5087 Y9.4054
G01 X13.4994 Y9.4087
G01 X13.4882 Y9.4121
G01 X13.4787 Y9.4145
G01 X13.4671 Y9.4168
G01 X13.4574 Y9.4182
G01 X13.4457 Y9.4194
G01 X13.4359 Y9.4199
G01 X11.4300 Y9.4200
G01 X11.6201 Y10.0638
G01 X11.6397 Y10.0376
G01 X11.6579 Y10.0154
G01 X11.6787 Y9.9922
G01 X11.6993 Y9.9711
G01 X11.7163 Y9.9549
G01 X11.7392 Y9.9348
G01 X11.7627 Y9.9158
G01 X11.7840 Y9.9000
G01 X11.6201 Y9.9000
G01 X11.6201 Y10.0638
G01 X11.3263 Y11.7800
G01 X11.4900 Y11.7800
G01 X11.4900 Y11.6164
G01 X11.4703 Y11.6426
G01 X11.4521 Y11.6648
G01 X11.4314 Y11.6880
G01 X11.4108 Y11.7091
G01 X11.3937 Y11.7253
G01 X11.3709 Y11.7454
G01 X11.3480 Y11.7639
G01 X11.3263 Y11.7800
G00 Z2.0000
G00 X13.8360 Y9.7701
G01 F60.00
G01 Z-0.0500
G01 F150.00
G01 X14.0000 Y9.7701
G01 X14.0000 Y9.6062
G01 X13.9802 Y9.6325
G01 X13.9620 Y9.6547
G01 X13.9413 Y9.6780
G01 X13.9207 Y9.6990
G01 X13.9036 Y9.7153
G01 X13.8808 Y9.7354
G01 X13.8573 Y9.7543
G01 X13.8360 Y9.7701
G00 Z2.0000
G00 X7.3500 Y11.6160
G01 F60.00
G01 Z-0.0500
G01 F150.00
G01 X7.3500 Y11.7800
G01 X7.5139 Y11.7800
G01 X7.4876 Y11.7603
G01 X7.4654 Y11.7421
G01 X7.4421 Y11.7213
G01 X7.4211 Y11.7007
G01 X7.4048 Y11.6837
G01 X7.3847 Y11.6608
G01 X7.3658 Y11.6373
G01 X7.3500 Y11.6160
G01 X7.0559 Y9.9000
G01 X7.0825 Y9.9199
G01 X7.1047 Y9.9381
G01 X7.1279 Y9.9589
G01 X7.1490 Y9.9794
G01 X7.1653 Y9.9965
G01 X7.1853 Y10.0193
G01 X7.2043 Y10.0428
G01 X7.2201 Y10.0642
G01 X7.2201 Y9.9000
G01 X7.0559 Y9.9000
G00 Z2.0000
G00 X1.2316 Y10.2597
G01 F60.00
G01 Z-0.0500
G01 F150.00
G01 X1.2228 Y10.2555
G01 X1.2144 Y10.2505
G01 X1.2065 Y10.2446
G01 X1.1992 Y10.2380
G01 X1.1927 Y10.2308
G01 X1.1868 Y10.2229
G01 X1.1818 Y10.2145
G01 X1.1776 Y10.2056
G01 X1.1743 Y10.1964
G01 X1.1719 Y10.1869
G01 X1.1705 Y10.1772
G01 X1.1700 Y10.1674
G01 X1.1700 Y2.1859
G01 X1.1705 Y2.1761
G01 X1.1719 Y2.1664
G01 X1.2110 Y1.9700
G01 X1.2134 Y1.9606
G01 X1.2167 Y1.9514
G01 X1.2932 Y1.7665
G01 X1.2974 Y1.7575
G01 X1.3024 Y1.7491
G01 X1.4137 Y1.5827
G01 X1.4195 Y1.5748
G01 X1.4261 Y1.5676
G01 X1.5676 Y1.4261
G01 X1.5748 Y1.4195
G01 X1.5827 Y1.4137
G01 X1.7491 Y1.3024
G01 X1.7575 Y1.2974
G01 X1.7665 Y1.2932
G01 X1.9514 Y1.2167
G01 X1.9606 Y1.2134
G01 X1.9700 Y1.2110
G01 X2.1664 Y1.1719
G01 X2.1761 Y1.1705
G01 X2.1859 Y1.1700
G01 X86.4852 Y1.1700
G01 X86.4950 Y1.1705
G01 X86.5047 Y1.1719
G01 X86.7498 Y1.2207
G01 X86.7594 Y1.2231
G01 X86.7686 Y1.2264
G01 X86.9997 Y1.3221
G01 X87.0086 Y1.3263
G01 X87.0170 Y1.3314
G01 X87.2250 Y1.4703
G01 X87.2329 Y1.4762
G01 X87.2402 Y1.4828
G01 X87.4172 Y1.6598
G01 X87.4238 Y1.6671
G01 X87.4297 Y1.6750
G01 X87.5686 Y1.8830
G01 X87.5737 Y1.8914
G01 X87.5779 Y1.9003
G01 X87.6736 Y2.1314
G01 X87.6769 Y2.1406
G01 X87.6793 Y2.1502
G01 X87.7281 Y2.3953
G01 X87.7295 Y2.4050
G01 X87.7300 Y2.4148
G01 X87.7300 Y31.8752
G01 X87.7295 Y31.8850
G01 X87.7281 Y31.8947
G01 X87.6793 Y32.1401
G01 X87.6769 Y32.1496
G01 X87.6736 Y32.1589
G01 X87.5778 Y32.3898
G01 X87.5737 Y32.3986
G01 X87.5686 Y32.4070
G01 X87.4297 Y32.6150
G01 X87.4238 Y32.6229
G01 X87.4172 Y32.6302
G01 X87.2402 Y32.8072
G01 X87.2329 Y32.8138
G01 X87.2250 Y32.8197
G01 X87.0170 Y32.9586
G01 X87.0086 Y32.9637
G01 X86.9997 Y32.9679
G01 X86.7686 Y33.0636
G01 X86.7594 Y33.0669
G01 X86.7498 Y33.0693
G01 X86.5047 Y33.1181
G01 X86.4950 Y33.1195
G01 X86.4852 Y33.1200
G01 X2.1283 Y33.1200
G01 X2.1185 Y33.1195
G01 X2.1088 Y33.1181
G01 X1.9249 Y33.0815
G01 X1.9153 Y33.0791
G01 X1.9060 Y33.0758
G01 X1.7328 Y33.0039
G01 X1.7240 Y32.9997
G01 X1.7156 Y32.9947
G01 X1.5597 Y32.8906
G01 X1.5518 Y32.8847
G01 X1.5445 Y32.8781
G01 X1.4119 Y32.7455
G01 X1.4053 Y32.7382
G01 X1.3994 Y32.7303
G01 X1.2953 Y32.5744
G01 X1.2903 Y32.5660
G01 X1.2861 Y32.5572
G01 X1.2142 Y32.3840
G01 X1.2109 Y32.3747
G01 X1.2085 Y32.3651
G01 X1.1719 Y32.1812
G01 X1.1705 Y32.1715
G01 X1.1700 Y32.1617
G01 X1.1700 Y28.7663
G01 X1.1704 Y28.7568
G01 X1.1718 Y28.7475
G01 X1.1740 Y28.7383
G01 X1.1771 Y28.7294
G01 X1.1810 Y28.7208
G01 X1.1856 Y28.7126
G01 X1.1911 Y28.7048
G01 X1.1972 Y28.6977
G01 X1.2040 Y28.6911
G01 X1.2114 Y28.6852
G01 X1.2193 Y28.6801
G01 X1.2277 Y28.6757
G01 X1.2364 Y28.6721
G01 X1.3560 Y28.6294
G01 X1.3658 Y28.6265
G01 X1.3759 Y28.6245
G01 X1.3860 Y28.6237
G01 X1.3963 Y28.6238
G01 X1.4064 Y28.6250
G01 X1.4164 Y28.6272
G01 X1.4261 Y28.6305
G01 X1.4354 Y28.6347
G01 X1.4442 Y28.6398
G01 X1.4525 Y28.6458
G01 X1.4601 Y28.6526
G01 X1.4670 Y28.6602
G01 X1.5115 Y28.7145
G01 X1.7863 Y28.9400
G01 X2.0999 Y29.1078
G01 X2.4402 Y29.2108
G01 X2.7940 Y29.2457
G01 X3.1478 Y29.2108
G01 X3.4881 Y29.1078
G01 X3.8017 Y28.9400
G01 X4.0765 Y28.7145
G01 X4.3020 Y28.4397
G01 X4.4698 Y28.1261
G01 X4.5730 Y27.7858
G01 X4.6077 Y27.4320
G01 X4.5730 Y27.0782
G01 X4.4850 Y26.7882
G01 X4.4826 Y26.7787
G01 X4.4811 Y26.7690
G01 X4.4806 Y26.7592
G01 X4.4806 Y26.2966
G01 X4.4811 Y26.2868
G01 X4.4826 Y26.2771
G01 X4.4849 Y26.2676
G01 X4.4883 Y26.2584
G01 X4.4924 Y26.2495
G01 X4.4975 Y26.2411
G01 X4.5033 Y26.2332
G01 X4.5099 Y26.2259
G01 X4.5172 Y26.2193
G01 X4.5251 Y26.2135
G01 X4.5335 Y26.2084
G01 X4.5424 Y26.2042
G01 X4.5516 Y26.2009
G01 X4.5611 Y26.1985
G01 X4.5708 Y26.1971
G01 X4.5806 Y26.1966
G01 X27.5551 Y26.1966
G01 X27.8889 Y26.1638
G01 X28.2053 Y26.0677
G01 X28.4968 Y25.9118
G01 X28.7562 Y25.6992
G01 X31.0062 Y23.4492
G01 X31.0135 Y23.4426
G01 X31.0213 Y23.4368
G01 X31.0297 Y23.4317
G01 X31.0386 Y23.4275
G01 X31.0478 Y23.4242
G01 X31.2183 Y23.3725
G01 X31.5519 Y23.1940
G01 X31.8486 Y22.9506
G01 X31.8565 Y22.9447
G01 X31.8649 Y22.9397
G01 X31.8738 Y22.9355
G01 X31.8830 Y22.9322
G01 X31.8925 Y22.9298
G01 X31.9023 Y22.9284
G01 X31.9121 Y22.9279
G01 X31.9219 Y22.9284
G01 X31.9316 Y22.9298
G01 X31.9411 Y22.9322
G01 X31.9503 Y22.9355
G01 X31.9592 Y22.9397
G01 X31.9676 Y22.9448
G01 X31.9755 Y22.9506
G01 X31.9828 Y22.9572
G01 X39.7525 Y30.7266
G01 X39.9729 Y30.9078
G01 X40.2205 Y31.0399
G01 X40.4889 Y31.1214
G01 X40.7729 Y31.1494
G01 X78.7351 Y31.1494
G01 X79.0191 Y31.1214
G01 X79.2875 Y31.0399
G01 X79.5351 Y30.9078
G01 X79.7555 Y30.7266
G01 X86.3526 Y24.1296
G01 X86.5338 Y23.9091
G01 X86.6659 Y23.6615
G01 X86.7474 Y23.3931
G01 X86.7754 Y23.1091
G01 X86.7754 Y18.2929
G01 X86.7474 Y18.0089
G01 X86.6659 Y17.7405
G01 X86.5338 Y17.4929
G01 X86.3526 Y17.2725
G01 X84.5982 Y15.5180
G01 X84.5916 Y15.5107
G01 X84.5857 Y15.5028
G01 X84.5807 Y15.4944
G01 X84.5765 Y15.4855
G01 X84.5732 Y15.4763
G01 X84.5708 Y15.4668
G01 X84.5694 Y15.4571
G01 X84.5689 Y15.4473
G01 X84.5694 Y15.4375
G01 X84.5708 Y15.4278
G01 X84.5732 Y15.4182
G01 X84.5765 Y15.4090
G01 X84.5807 Y15.4001
G01 X84.5857 Y15.3917
G01 X84.5916 Y15.3838
G01 X84.5982 Y15.3766
G01 X85.1728 Y14.8019
G01 X85.3699 Y14.5619
G01 X85.5138 Y14.2925
G01 X85.6026 Y14.0002
G01 X85.6329 Y13.6910
G01 X85.6329 Y11.4349
G01 X85.6026 Y11.1260
G01 X85.5138 Y10.8334
G01 X85.3699 Y10.5641
G01 X85.1728 Y10.3243
G01 X82.6397 Y7.7912
G01 X82.3999 Y7.5941
G01 X82.1303 Y7.4502
G01 X81.8380 Y7.3614
G01 X81.5291 Y7.3311
G01 X32.0716 Y7.3311
G01 X32.0621 Y7.3307
G01 X32.0528 Y7.3293
G01 X32.0436 Y7.3271
G01 X32.0347 Y7.3241
G01 X32.0261 Y7.3202
G01 X32.0179 Y7.3155
G01 X32.0101 Y7.3100
G01 X32.0030 Y7.3039
G01 X31.9964 Y7.2971
G01 X31.9905 Y7.2897
G01 X31.9854 Y7.2818
G01 X31.9810 Y7.2734
G01 X31.9215 Y7.1462
G01 X31.9176 Y7.1365
G01 X31.9147 Y7.1265
G01 X31.9129 Y7.1162
G01 X31.9121 Y7.1057
G01 X31.9125 Y7.0953
G01 X31.9139 Y7.0850
G01 X31.9164 Y7.0748
G01 X32.0223 Y6.7264
G01 X32.0592 Y6.3500
G01 X32.0223 Y5.9736
G01 X31.9124 Y5.6117
G01 X31.7343 Y5.2781
G01 X31.4943 Y4.9857
G01 X31.2019 Y4.7457
G01 X30.8683 Y4.5676
G01 X30.5064 Y4.4577
G01 X30.1300 Y4.4208
G01 X29.7536 Y4.4577
G01 X29.3917 Y4.5675
G01 X29.1771 Y4.6823
G01 X29.1683 Y4.6865
G01 X29.1590 Y4.6898
G01 X29.1495 Y4.6922
G01 X29.1398 Y4.6936
G01 X29.1300 Y4.6941
G01 X29.1202 Y4.6936
G01 X29.1105 Y4.6922
G01 X29.1010 Y4.6898
G01 X29.0917 Y4.6865
G01 X29.0828 Y4.6823
G01 X28.8683 Y4.5675
G01 X28.5064 Y4.4577
G01 X28.1300 Y4.4208
G01 X27.7536 Y4.4577
G01 X27.3918 Y4.5675
G01 X27.3797 Y4.5740
G01 X27.3708 Y4.5782
G01 X27.3616 Y4.5815
G01 X27.3521 Y4.5839
G01 X27.3423 Y4.5854
G01 X27.3325 Y4.5859
G01 X27.3227 Y4.5854
G01 X27.3130 Y4.5840
G01 X27.3035 Y4.5816
G01 X27.2942 Y4.5783
G01 X27.2853 Y4.5741
G01 X27.2769 Y4.5690
G01 X27.2690 Y4.5632
G01 X27.2617 Y4.5566
G01 X25.3262 Y2.6208
G01 X25.0668 Y2.4082
G01 X24.7753 Y2.2523
G01 X24.4589 Y2.1562
G01 X24.1251 Y2.1234
G01 X16.3249 Y2.1234
G01 X15.9911 Y2.1562
G01 X15.6747 Y2.2523
G01 X15.3832 Y2.4082
G01 X15.1238 Y2.6208
G01 X12.7440 Y5.0006
G01 X12.7368 Y5.0072
G01 X12.7289 Y5.0130
G01 X12.7205 Y5.0181
G01 X12.7116 Y5.0223
G01 X12.7024 Y5.0256
G01 X12.6928 Y5.0280
G01 X12.6831 Y5.0294
G01 X12.6733 Y5.0299
G01 X10.2600 Y5.0299
G01 X10.2600 Y7.9400
G01 X10.2595 Y7.9498
G01 X10.2581 Y7.9595
G01 X10.2557 Y7.9691
G01 X10.2524 Y7.9783
G01 X10.2482 Y7.9872
G01 X10.2431 Y7.9956
G01 X10.2373 Y8.0035
G01 X10.2307 Y8.0107
G01 X10.2234 Y8.0173
G01 X10.2156 Y8.0232
G01 X10.2071 Y8.0282
G01 X10.1983 Y8.0324
G01 X10.1890 Y8.0357
G01 X10.1795 Y8.0381
G01 X10.1698 Y8.0396
G01 X10.1600 Y8.0400
G01 X9.6766 Y8.0400
G01 X9.6668 Y8.0396
G01 X9.6571 Y8.0381
G01 X9.6476 Y8.0357
G01 X9.6384 Y8.0324
G01 X9.6295 Y8.0282
G01 X9.6211 Y8.0232
G01 X9.6132 Y8.0173
G01 X9.6059 Y8.0107
G01 X8.6293 Y7.0341
G01 X8.6227 Y7.0268
G01 X8.6169 Y7.0190
G01 X8.6118 Y7.0105
G01 X8.6076 Y7.0017
G01 X8.6043 Y6.9924
G01 X8.6019 Y6.9829
G01 X8.6005 Y6.9732
G01 X8.6000 Y6.9634
G01 X8.6000 Y5.0299
G01 X4.2600 Y5.0299
G01 X4.2600 Y7.4435
G01 X4.2595 Y7.4533
G01 X4.2581 Y7.4630
G01 X4.2557 Y7.4725
G01 X4.2524 Y7.4817
G01 X4.2482 Y7.4906
G01 X4.2432 Y7.4990
G01 X4.2373 Y7.5069
G01 X4.2307 Y7.5142
G01 X1.4581 Y10.2868
G01 X1.4508 Y10.2934
G01 X1.4429 Y10.2993
G01 X1.4345 Y10.3043
G01 X1.4256 Y10.3085
G01 X1.4163 Y10.3118
G01 X1.4068 Y10.3142
G01 X1.3971 Y10.3157
G01 X1.3873 Y10.3161
G01 X1.3775 Y10.3156
G01 X1.3677 Y10.3142
G01 X1.3582 Y10.3118
G01 X1.3490 Y10.3085
G01 X1.2316 Y10.2597
G01 X1.1856 Y10.3705
G01 X1.1713 Y10.3639
G01 X1.1610 Y10.3584
G01 X1.1526 Y10.3533
G01 X1.1428 Y10.3468
G01 X1.1349 Y10.3409
G01 X1.1258 Y10.3335
G01 X1.1186 Y10.3269
G01 X1.1103 Y10.3185
G01 X1.1037 Y10.3113
G01 X1.0962 Y10.3022
G01 X1.0904 Y10.2943
G01 X1.0839 Y10.2845
G01 X1.0788 Y10.2761
G01 X1.0733 Y10.2657
G01 X1.0691 Y10.2569
G01 X1.0646 Y10.2460
G01 X1.0613 Y10.2368
G01 X1.0579 Y10.2255
G01 X1.0555 Y10.2160
G01 X1.0532 Y10.2044
G01 X1.0518 Y10.1947
G01 X1.0506 Y10.1830
G01 X1.0500 Y10.1674
G01 X1.0500 Y2.1859
G01 X1.0506 Y2.1702
G01 X1.0518 Y2.1585
G01 X1.0542 Y2.1429
G01 X1.0934 Y1.9466
G01 X1.0970 Y1.9314
G01 X1.1004 Y1.9202
G01 X1.1058 Y1.9055
G01 X1.1823 Y1.7206
G01 X1.1889 Y1.7063
G01 X1.1945 Y1.6958
G01 X1.2027 Y1.6824
G01 X1.3139 Y1.5160
G01 X1.3232 Y1.5033
G01 X1.3306 Y1.4943
G01 X1.3413 Y1.4827
G01 X1.4827 Y1.3413
G01 X1.4943 Y1.3306
G01 X1.5033 Y1.3232
G01 X1.5160 Y1.3139
G01 X1.6824 Y1.2027
G01 X1.6958 Y1.1945
G01 X1.7063 Y1.1889
G01 X1.7206 Y1.1823
G01 X1.9055 Y1.1058
G01 X1.9202 Y1.1004
G01 X1.9314 Y1.0970
G01 X1.9466 Y1.0934
G01 X2.1429 Y1.0542
G01 X2.1585 Y1.0518
G01 X2.1702 Y1.0506
G01 X2.1859 Y1.0500
G01 X86.4852 Y1.0500
G01 X86.5009 Y1.0506
G01 X86.5126 Y1.0518
G01 X86.5282 Y1.0542
G01 X86.7733 Y1.1030
G01 X86.7885 Y1.1067
G01 X86.7998 Y1.1101
G01 X86.8145 Y1.1155
G01 X87.0457 Y1.2113
G01 X87.0599 Y1.2179
G01 X87.0703 Y1.2234
G01 X87.0837 Y1.2316
G01 X87.2917 Y1.3705
G01 X87.3044 Y1.3798
G01 X87.3135 Y1.3872
G01 X87.3251 Y1.3979
G01 X87.5021 Y1.5749
G01 X87.5128 Y1.5865
G01 X87.5202 Y1.5956
G01 X87.5295 Y1.6083
G01 X87.6684 Y1.8163
G01 X87.6766 Y1.8297
G01 X87.6821 Y1.8401
G01 X87.6887 Y1.8543
G01 X87.7845 Y2.0855
G01 X87.7899 Y2.1002
G01 X87.7933 Y2.1115
G01 X87.7970 Y2.1267
G01 X87.8458 Y2.3718
G01 X87.8482 Y2.3874
G01 X87.8494 Y2.3991
G01 X87.8499 Y2.4089
G01 X87.8500 Y31.8752
G01 X87.8494 Y31.8909
G01 X87.8482 Y31.9026
G01 X87.8458 Y31.9181
G01 X87.7970 Y32.1635
G01 X87.7933 Y32.1788
G01 X87.7899 Y32.1901
G01 X87.7844 Y32.2049
G01 X87.6887 Y32.4358
G01 X87.6821 Y32.4500
G01 X87.6766 Y32.4603
G01 X87.6684 Y32.4737
G01 X87.5295 Y32.6817
G01 X87.5202 Y32.6944
G01 X87.5128 Y32.7035
G01 X87.5021 Y32.7151
G01 X87.3251 Y32.8921
G01 X87.3135 Y32.9028
G01 X87.3044 Y32.9102
G01 X87.2917 Y32.9195
G01 X87.0837 Y33.0584
G01 X87.0703 Y33.0666
G01 X87.0599 Y33.0721
G01 X87.0457 Y33.0787
G01 X86.8145 Y33.1745
G01 X86.7998 Y33.1799
G01 X86.7885 Y33.1833
G01 X86.7733 Y33.1870
G01 X86.5282 Y33.2358
G01 X86.5126 Y33.2382
G01 X86.5009 Y33.2394
G01 X86.4852 Y33.2400
G01 X2.1283 Y33.2400
G01 X2.1126 Y33.2394
G01 X2.1009 Y33.2382
G01 X2.0853 Y33.2358
G01 X1.9015 Y33.1992
G01 X1.8861 Y33.1955
G01 X1.8748 Y33.1921
G01 X1.8656 Y33.1888
G01 X1.6868 Y33.1147
G01 X1.6726 Y33.1082
G01 X1.6623 Y33.1027
G01 X1.6490 Y33.0945
G01 X1.4930 Y32.9904
G01 X1.4803 Y32.9811
G01 X1.4712 Y32.9736
G01 X1.4596 Y32.9630
G01 X1.3270 Y32.8304
G01 X1.3164 Y32.8188
G01 X1.3089 Y32.8097
G01 X1.2996 Y32.7970
G01 X1.1955 Y32.6410
G01 X1.1873 Y32.6277
G01 X1.1818 Y32.6174
G01 X1.1753 Y32.6032
G01 X1.1034 Y32.4299
G01 X1.0979 Y32.4152
G01 X1.0945 Y32.4039
G01 X1.0908 Y32.3885
G01 X1.0542 Y32.2047
G01 X1.0518 Y32.1891
G01 X1.0506 Y32.1774
G01 X1.0500 Y32.1617
G01 X1.0500 Y28.7663
G01 X1.0506 Y28.7512
G01 X1.0530 Y28.7305
G01 X1.0573 Y28.7102
G01 X1.0636 Y28.6904
G01 X1.0716 Y28.6713
G01 X1.0815 Y28.6530
G01 X1.0930 Y28.6357
G01 X1.1061 Y28.6196
G01 X1.1207 Y28.6048
G01 X1.1366 Y28.5914
G01 X1.1537 Y28.5796
G01 X1.1718 Y28.5695
G01 X1.1821 Y28.5647
G01 X1.1961 Y28.5591
G01 X1.3157 Y28.5164
G01 X1.3313 Y28.5115
G01 X1.3432 Y28.5086
G01 X1.3533 Y28.5067
G01 X1.3654 Y28.5050
G01 X1.3756 Y28.5041
G01 X1.3879 Y28.5037
G01 X1.3981 Y28.5038
G01 X1.4103 Y28.5046
G01 X1.4205 Y28.5058
G01 X1.4326 Y28.5079
G01 X1.4425 Y28.5101
G01 X1.4543 Y28.5134
G01 X1.4640 Y28.5166
G01 X1.4755 Y28.5211
G01 X1.4848 Y28.5253
G01 X1.4957 Y28.5309
G01 X1.5045 Y28.5361
G01 X1.5148 Y28.5427
G01 X1.5231 Y28.5488
G01 X1.5326 Y28.5565
G01 X1.5402 Y28.5633
G01 X1.5489 Y28.5719
G01 X1.5598 Y28.5841
G01 X1.5968 Y28.6293
G01 X1.8533 Y28.8398
G01 X2.1460 Y28.9963
G01 X2.4637 Y29.0925
G01 X2.7940 Y29.1251
G01 X3.1243 Y29.0925
G01 X3.4420 Y28.9963
G01 X3.7347 Y28.8398
G01 X3.9912 Y28.6292
G01 X4.2018 Y28.3727
G01 X4.3584 Y28.0799
G01 X4.4547 Y27.7623
G01 X4.4871 Y27.4320
G01 X4.4547 Y27.1017
G01 X4.3701 Y26.8231
G01 X4.3662 Y26.8079
G01 X4.3639 Y26.7963
G01 X4.3624 Y26.7866
G01 X4.3613 Y26.7749
G01 X4.3606 Y26.7592
G01 X4.3608 Y26.2907
G01 X4.3613 Y26.2809
G01 X4.3624 Y26.2692
G01 X4.3639 Y26.2595
G01 X4.3662 Y26.2480
G01 X4.3685 Y26.2384
G01 X4.3720 Y26.2272
G01 X4.3753 Y26.2179
G01 X4.3798 Y26.2070
G01 X4.3840 Y26.1982
G01 X4.3895 Y26.1878
G01 X4.3946 Y26.1794
G01 X4.4011 Y26.1696
G01 X4.4070 Y26.1617
G01 X4.4144 Y26.1526
G01 X4.4210 Y26.1453
G01 X4.4293 Y26.1370
G01 X4.4366 Y26.1304
G01 X4.4457 Y26.1229
G01 X4.4536 Y26.1171
G01 X4.4634 Y26.1105
G01 X4.4718 Y26.1055
G01 X4.4822 Y26.1000
G01 X4.4911 Y26.0958
G01 X4.5019 Y26.0912
G01 X4.5112 Y26.0879
G01 X4.5225 Y26.0845
G01 X4.5320 Y26.0821
G01 X4.5435 Y26.0798
G01 X4.5532 Y26.0784
G01 X4.5649 Y26.0772
G01 X4.5806 Y26.0766
G01 X27.5492 Y26.0766
G01 X27.8653 Y26.0455
G01 X28.1591 Y25.9563
G01 X28.4299 Y25.8115
G01 X28.6755 Y25.6101
G01 X30.9213 Y23.3643
G01 X30.9329 Y23.3537
G01 X30.9420 Y23.3462
G01 X30.9498 Y23.3404
G01 X30.9596 Y23.3338
G01 X30.9680 Y23.3288
G01 X30.9784 Y23.3232
G01 X30.9873 Y23.3190
G01 X30.9982 Y23.3145
G01 X31.0130 Y23.3094
G01 X31.1721 Y23.2611
G01 X31.4849 Y23.0938
G01 X31.7725 Y22.8578
G01 X31.7850 Y22.8484
G01 X31.7948 Y22.8418
G01 X31.8032 Y22.8368
G01 X31.8136 Y22.8312
G01 X31.8225 Y22.8270
G01 X31.8334 Y22.8225
G01 X31.8426 Y22.8192
G01 X31.8539 Y22.8158
G01 X31.8634 Y22.8134
G01 X31.8749 Y22.8111
G01 X31.8847 Y22.8097
G01 X31.8964 Y22.8085
G01 X31.9062 Y22.8080
G01 X31.9179 Y22.8080
G01 X31.9277 Y22.8085
G01 X31.9395 Y22.8097
G01 X31.9492 Y22.8111
G01 X31.9607 Y22.8134
G01 X31.9702 Y22.8158
G01 X31.9815 Y22.8192
G01 X31.9907 Y22.8225
G01 X32.0016 Y22.8270
G01 X32.0105 Y22.8312
G01 X32.0209 Y22.8368
G01 X32.0293 Y22.8418
G01 X32.0391 Y22.8484
G01 X32.0470 Y22.8542
G01 X32.0561 Y22.8617
G01 X32.0676 Y22.8723
G01 X39.8332 Y30.6376
G01 X40.0399 Y30.8075
G01 X40.2666 Y30.9285
G01 X40.5124 Y31.0031
G01 X40.7788 Y31.0294
G01 X78.7292 Y31.0294
G01 X78.9956 Y31.0031
G01 X79.2414 Y30.9285
G01 X79.4681 Y30.8075
G01 X79.6748 Y30.6376
G01 X86.2636 Y24.0488
G01 X86.4335 Y23.8421
G01 X86.5545 Y23.6154
G01 X86.6291 Y23.3696
G01 X86.6554 Y23.1032
G01 X86.6554 Y18.2988
G01 X86.6291 Y18.0324
G01 X86.5545 Y17.7866
G01 X86.4335 Y17.5599
G01 X86.2636 Y17.3532
G01 X84.5133 Y15.6028
G01 X84.5027 Y15.5913
G01 X84.4952 Y15.5822
G01 X84.4893 Y15.5743
G01 X84.4828 Y15.5645
G01 X84.4778 Y15.5561
G01 X84.4722 Y15.5457
G01 X84.4680 Y15.5368
G01 X84.4635 Y15.5260
G01 X84.4602 Y15.5167
G01 X84.4568 Y15.5055
G01 X84.4544 Y15.4959
G01 X84.4521 Y15.4844
G01 X84.4507 Y15.4747
G01 X84.4495 Y15.4630
G01 X84.4490 Y15.4532
G01 X84.4490 Y15.4414
G01 X84.4495 Y15.4316
G01 X84.4507 Y15.4199
G01 X84.4521 Y15.4101
G01 X84.4544 Y15.3986
G01 X84.4568 Y15.3891
G01 X84.4602 Y15.3778
G01 X84.4635 Y15.3686
G01 X84.4680 Y15.3577
G01 X84.4722 Y15.3488
G01 X84.4778 Y15.3384
G01 X84.4828 Y15.3300
G01 X84.4893 Y15.3202
G01 X84.4952 Y15.3123
G01 X84.5027 Y15.3032
G01 X84.5133 Y15.2917
G01 X85.0838 Y14.7212
G01 X85.2697 Y14.4949
G01 X85.4024 Y14.2463
G01 X85.4843 Y13.9767
G01 X85.5129 Y13.6852
G01 X85.5129 Y11.4408
G01 X85.4843 Y11.1495
G01 X85.4024 Y10.8796
G01 X85.2697 Y10.6311
G01 X85.0838 Y10.4050
G01 X82.5590 Y7.8802
G01 X82.3329 Y7.6943
G01 X82.0842 Y7.5616
G01 X81.8145 Y7.4797
G01 X81.5232 Y7.4511
G01 X32.0716 Y7.4511
G01 X32.0565 Y7.4505
G01 X32.0358 Y7.4481
G01 X32.0155 Y7.4438
G01 X31.9957 Y7.4376
G01 X31.9766 Y7.4295
G01 X31.9583 Y7.4196
G01 X31.9410 Y7.4081
G01 X31.9320 Y7.4011
G01 X31.9166 Y7.3872
G01 X31.9026 Y7.3719
G01 X31.8901 Y7.3553
G01 X31.8849 Y7.3474
G01 X31.8748 Y7.3293
G01 X31.8128 Y7.1970
G01 X31.8064 Y7.1815
G01 X31.8023 Y7.1697
G01 X31.7994 Y7.1596
G01 X31.7966 Y7.1474
G01 X31.7947 Y7.1371
G01 X31.7932 Y7.1247
G01 X31.7925 Y7.1143
G01 X31.7922 Y7.1017
G01 X31.7926 Y7.0913
G01 X31.7936 Y7.0788
G01 X31.7951 Y7.0684
G01 X31.7975 Y7.0561
G01 X31.8000 Y7.0460
G01 X31.9040 Y6.7029
G01 X31.9386 Y6.3500
G01 X31.9040 Y5.9971
G01 X31.8010 Y5.6578
G01 X31.6340 Y5.3450
G01 X31.4090 Y5.0710
G01 X31.1350 Y4.8460
G01 X30.8221 Y4.6790
G01 X30.4829 Y4.5760
G01 X30.1300 Y4.5413
G01 X29.7771 Y4.5760
G01 X29.4379 Y4.6789
G01 X29.2337 Y4.7881
G01 X29.2196 Y4.7950
G01 X29.2087 Y4.7995
G01 X29.1995 Y4.8028
G01 X29.1882 Y4.8062
G01 X29.1787 Y4.8086
G01 X29.1671 Y4.8109
G01 X29.1574 Y4.8123
G01 X29.1457 Y4.8135
G01 X29.1359 Y4.8140
G01 X29.1241 Y4.8140
G01 X29.1143 Y4.8135
G01 X29.1026 Y4.8123
G01 X29.0929 Y4.8109
G01 X29.0813 Y4.8086
G01 X29.0718 Y4.8062
G01 X29.0605 Y4.8028
G01 X29.0513 Y4.7995
G01 X29.0404 Y4.7950
G01 X29.0263 Y4.7881
G01 X28.8221 Y4.6789
G01 X28.4829 Y4.5760
G01 X28.1300 Y4.5413
G01 X27.7771 Y4.5760
G01 X27.4380 Y4.6789
G01 X27.4223 Y4.6866
G01 X27.4114 Y4.6912
G01 X27.4022 Y4.6945
G01 X27.3909 Y4.6979
G01 X27.3814 Y4.7003
G01 X27.3698 Y4.7026
G01 X27.3601 Y4.7041
G01 X27.3484 Y4.7052
G01 X27.3385 Y4.7057
G01 X27.3267 Y4.7058
G01 X27.3169 Y4.7053
G01 X27.3052 Y4.7041
G01 X27.2955 Y4.7027
G01 X27.2839 Y4.7004
G01 X27.2744 Y4.6980
G01 X27.2631 Y4.6946
G01 X27.2538 Y4.6913
G01 X27.2429 Y4.6868
G01 X27.2341 Y4.6826
G01 X27.2237 Y4.6770
G01 X27.2152 Y4.6720
G01 X27.2054 Y4.6654
G01 X27.1975 Y4.6596
G01 X27.1884 Y4.6521
G01 X27.1769 Y4.6414
G01 X25.2455 Y2.7098
G01 X24.9999 Y2.5084
G01 X24.7291 Y2.3637
G01 X24.4353 Y2.2745
G01 X24.1192 Y2.2434
G01 X16.3308 Y2.2434
G01 X16.0147 Y2.2745
G01 X15.7209 Y2.3637
G01 X15.4501 Y2.5084
G01 X15.2045 Y2.7098
G01 X12.8289 Y5.0854
G01 X12.8174 Y5.0961
G01 X12.8083 Y5.1036
G01 X12.8004 Y5.1094
G01 X12.7906 Y5.1160
G01 X12.7822 Y5.1210
G01 X12.7718 Y5.1266
G01 X12.7629 Y5.1308
G01 X12.7520 Y5.1353
G01 X12.7428 Y5.1386
G01 X12.7315 Y5.1420
G01 X12.7220 Y5.1444
G01 X12.7104 Y5.1467
G01 X12.7007 Y5.1481
G01 X12.6890 Y5.1493
G01 X12.6733 Y5.1499
G01 X10.3800 Y5.1499
G01 X10.3800 Y7.9400
G01 X10.3794 Y7.9557
G01 X10.3782 Y7.9674
G01 X10.3768 Y7.9772
G01 X10.3745 Y7.9887
G01 X10.3721 Y7.9982
G01 X10.3687 Y8.0095
G01 X10.3654 Y8.0187
G01 X10.3609 Y8.0296
G01 X10.3567 Y8.0385
G01 X10.3511 Y8.0489
G01 X10.3461 Y8.0573
G01 X10.3395 Y8.0671
G01 X10.3337 Y8.0750
G01 X10.3262 Y8.0841
G01 X10.3196 Y8.0913
G01 X10.3113 Y8.0997
G01 X10.3040 Y8.1063
G01 X10.2949 Y8.1137
G01 X10.2870 Y8.1196
G01 X10.2772 Y8.1261
G01 X10.2688 Y8.1312
G01 X10.2584 Y8.1367
G01 X10.2496 Y8.1409
G01 X10.2387 Y8.1454
G01 X10.2295 Y8.1487
G01 X10.2182 Y8.1521
G01 X10.2087 Y8.1545
G01 X10.1971 Y8.1568
G01 X10.1874 Y8.1583
G01 X10.1757 Y8.1594
G01 X10.1600 Y8.1600
G01 X9.6708 Y8.1599
G01 X9.6609 Y8.1594
G01 X9.6492 Y8.1583
G01 X9.6395 Y8.1568
G01 X9.6280 Y8.1545
G01 X9.6185 Y8.1521
G01 X9.6072 Y8.1487
G01 X9.5979 Y8.1454
G01 X9.5871 Y8.1409
G01 X9.5782 Y8.1367
G01 X9.5678 Y8.1312
G01 X9.5594 Y8.1261
G01 X9.5496 Y8.1196
G01 X9.5417 Y8.1137
G01 X9.5326 Y8.1063
G01 X9.5211 Y8.0956
G01 X8.5444 Y7.1190
G01 X8.5338 Y7.1074
G01 X8.5263 Y7.0983
G01 X8.5205 Y7.0904
G01 X8.5139 Y7.0807
G01 X8.5089 Y7.0722
G01 X8.5033 Y7.0619
G01 X8.4991 Y7.0530
G01 X8.4946 Y7.0421
G01 X8.4913 Y7.0329
G01 X8.4879 Y7.0216
G01 X8.4855 Y7.0121
G01 X8.4832 Y7.0005
G01 X8.4818 Y6.9908
G01 X8.4806 Y6.9791
G01 X8.4800 Y6.9634
G01 X8.4800 Y5.1499
G01 X4.3800 Y5.1499
G01 X4.3800 Y7.4435
G01 X4.3794 Y7.4592
G01 X4.3782 Y7.4709
G01 X4.3768 Y7.4806
G01 X4.3745 Y7.4921
G01 X4.3721 Y7.5017
G01 X4.3687 Y7.5129
G01 X4.3654 Y7.5222
G01 X4.3609 Y7.5330
G01 X4.3567 Y7.5419
G01 X4.3511 Y7.5523
G01 X4.3461 Y7.5607
G01 X4.3395 Y7.5705
G01 X4.3337 Y7.5784
G01 X4.3262 Y7.5875
G01 X4.3156 Y7.5990
G01 X1.5386 Y10.3758
G01 X1.5314 Y10.3824
G01 X1.5222 Y10.3898
G01 X1.5144 Y10.3957
G01 X1.5046 Y10.4022
G01 X1.4961 Y10.4073
G01 X1.4857 Y10.4128
G01 X1.4768 Y10.4170
G01 X1.4660 Y10.4215
G01 X1.4567 Y10.4248
G01 X1.4454 Y10.4283
G01 X1.4359 Y10.4306
G01 X1.4243 Y10.4329
G01 X1.4146 Y10.4344
G01 X1.4029 Y10.4355
G01 X1.3931 Y10.4360
G01 X1.3813 Y10.4360
G01 X1.3715 Y10.4355
G01 X1.3597 Y10.4343
G01 X1.3500 Y10.4329
G01 X1.3385 Y10.4306
G01 X1.3289 Y10.4282
G01 X1.3177 Y10.4247
G01 X1.3029 Y10.4193
G01 X1.1856 Y10.3705
G01 X1.1395 Y10.4813
G01 X1.1199 Y10.4723
G01 X1.0992 Y10.4612
G01 X1.0858 Y10.4530
G01 X1.0760 Y10.4465
G01 X1.0587 Y10.4336
G01 X1.0496 Y10.4262
G01 X1.0379 Y10.4157
G01 X1.0213 Y10.3991
G01 X1.0109 Y10.3873
G01 X1.0034 Y10.3782
G01 X0.9906 Y10.3609
G01 X0.9840 Y10.3511
G01 X0.9759 Y10.3377
G01 X0.9648 Y10.3170
G01 X0.9582 Y10.3027
G01 X0.9537 Y10.2919
G01 X0.9465 Y10.2716
G01 X0.9430 Y10.2603
G01 X0.9391 Y10.2451
G01 X0.9345 Y10.2220
G01 X0.9324 Y10.2065
G01 X0.9312 Y10.1948
G01 X0.9302 Y10.1762
G01 X0.9300 Y2.1859
G01 X0.9312 Y2.1584
G01 X0.9331 Y2.1408
G01 X0.9360 Y2.1224
G01 X0.9757 Y1.9232
G01 X0.9806 Y1.9022
G01 X0.9874 Y1.8798
G01 X0.9938 Y1.8624
G01 X1.0714 Y1.6748
G01 X1.0830 Y1.6497
G01 X1.0915 Y1.6341
G01 X1.1029 Y1.6157
G01 X1.2159 Y1.4469
G01 X1.2268 Y1.4318
G01 X1.2379 Y1.4181
G01 X1.2564 Y1.3979
G01 X1.3979 Y1.2564
G01 X1.4137 Y1.2417
G01 X1.4272 Y1.2304
G01 X1.4493 Y1.2142
G01 X1.6157 Y1.1029
G01 X1.6341 Y1.0915
G01 X1.6497 Y1.0830
G01 X1.6748 Y1.0714
G01 X1.8597 Y0.9949
G01 X1.8798 Y0.9874
G01 X1.8966 Y0.9822
G01 X1.9232 Y0.9757
G01 X2.1224 Y0.9360
G01 X2.1467 Y0.9324
G01 X2.1643 Y0.9308
G01 X2.1830 Y0.9300
G01 X86.4852 Y0.9300
G01 X86.5127 Y0.9312
G01 X86.5303 Y0.9331
G01 X86.5487 Y0.9360
G01 X86.7967 Y0.9853
G01 X86.8177 Y0.9903
G01 X86.8402 Y0.9971
G01 X86.8605 Y1.0047
G01 X87.0916 Y1.1004
G01 X87.1165 Y1.1120
G01 X87.1320 Y1.1205
G01 X87.1503 Y1.1318
G01 X87.3583 Y1.2707
G01 X87.3759 Y1.2834
G01 X87.3896 Y1.2945
G01 X87.4099 Y1.3130
G01 X87.5870 Y1.4901
G01 X87.6017 Y1.5059
G01 X87.6130 Y1.5195
G01 X87.6293 Y1.5417
G01 X87.7682 Y1.7497
G01 X87.7824 Y1.7732
G01 X87.7906 Y1.7888
G01 X87.7996 Y1.8084
G01 X87.8953 Y2.0395
G01 X87.9047 Y2.0654
G01 X87.9097 Y2.0823
G01 X87.9147 Y2.1033
G01 X87.9640 Y2.3513
G01 X87.9676 Y2.3756
G01 X87.9688 Y2.3873
G01 X87.9697 Y2.4030
G01 X87.9700 Y2.4148
G01 X87.9700 Y31.8752
G01 X87.9688 Y31.9027
G01 X87.9669 Y31.9202
G01 X87.9640 Y31.9386
G01 X87.9147 Y32.1869
G01 X87.9097 Y32.2079
G01 X87.9047 Y32.2249
G01 X87.8953 Y32.2508
G01 X87.7995 Y32.4817
G01 X87.7906 Y32.5013
G01 X87.7824 Y32.5169
G01 X87.7682 Y32.5403
G01 X87.6276 Y32.7508
G01 X87.6166 Y32.7659
G01 X87.6055 Y32.7796
G01 X87.5890 Y32.7978
G01 X87.4099 Y32.9770
G01 X87.3941 Y32.9917
G01 X87.3805 Y33.0030
G01 X87.3583 Y33.0193
G01 X87.1503 Y33.1582
G01 X87.1320 Y33.1695
G01 X87.1165 Y33.1780
G01 X87.0916 Y33.1896
G01 X86.8605 Y33.2853
G01 X86.8346 Y33.2947
G01 X86.8177 Y33.2997
G01 X86.7967 Y33.3047
G01 X86.5516 Y33.3535
G01 X86.5244 Y33.3576
G01 X86.5068 Y33.3592
G01 X86.4852 Y33.3600
G01 X2.1283 Y33.3600
G01 X2.1008 Y33.3588
G01 X2.0833 Y33.3569
G01 X2.0619 Y33.3535
G01 X1.8752 Y33.3163
G01 X1.8513 Y33.3103
G01 X1.8400 Y33.3069
G01 X1.8251 Y33.3017
G01 X1.8141 Y33.2975
G01 X1.6408 Y33.2256
G01 X1.6161 Y33.2140
G01 X1.6006 Y33.2056
G01 X1.5823 Y33.1943
G01 X1.4264 Y33.0902
G01 X1.4042 Y33.0739
G01 X1.3906 Y33.0626
G01 X1.3769 Y33.0499
G01 X1.2422 Y32.9152
G01 X1.2236 Y32.8949
G01 X1.2125 Y32.8812
G01 X1.1998 Y32.8636
G01 X1.0941 Y32.7052
G01 X1.0844 Y32.6894
G01 X1.0760 Y32.6739
G01 X1.0656 Y32.6519
G01 X0.9925 Y32.4759
G01 X0.9831 Y32.4500
G01 X0.9781 Y32.4330
G01 X0.9731 Y32.4120
G01 X0.9365 Y32.2281
G01 X0.9331 Y32.2067
G01 X0.9312 Y32.1892
G01 X0.9300 Y32.1617
G01 X0.9300 Y28.7663
G01 X0.9311 Y28.7398
G01 X0.9329 Y28.7229
G01 X0.9351 Y28.7080
G01 X0.9407 Y28.6821
G01 X0.9453 Y28.6658
G01 X0.9501 Y28.6514
G01 X0.9562 Y28.6356
G01 X0.9623 Y28.6218
G01 X0.9699 Y28.6066
G01 X0.9773 Y28.5934
G01 X0.9863 Y28.5790
G01 X0.9949 Y28.5666
G01 X1.0053 Y28.5531
G01 X1.0150 Y28.5415
G01 X1.0266 Y28.5290
G01 X1.0373 Y28.5184
G01 X1.0500 Y28.5071
G01 X1.0618 Y28.4976
G01 X1.0755 Y28.4875
G01 X1.0880 Y28.4792
G01 X1.1026 Y28.4704
G01 X1.1159 Y28.4633
G01 X1.1365 Y28.4537
G01 X1.1558 Y28.4460
G01 X1.2783 Y28.4024
G01 X1.2969 Y28.3966
G01 X1.3147 Y28.3921
G01 X1.3307 Y28.3888
G01 X1.3489 Y28.3861
G01 X1.3652 Y28.3846
G01 X1.3836 Y28.3837
G01 X1.3999 Y28.3838
G01 X1.4183 Y28.3849
G01 X1.4345 Y28.3867
G01 X1.4527 Y28.3896
G01 X1.4746 Y28.3945
G01 X1.4923 Y28.3996
G01 X1.5078 Y28.4049
G01 X1.5248 Y28.4117
G01 X1.5397 Y28.4186
G01 X1.5560 Y28.4272
G01 X1.5700 Y28.4355
G01 X1.5803 Y28.4422
G01 X1.5936 Y28.4517
G01 X1.6127 Y28.4671
G01 X1.6248 Y28.4781
G01 X1.6335 Y28.4868
G01 X1.6506 Y28.5057
G01 X1.6821 Y28.5440
G01 X1.9203 Y28.7395
G01 X2.1922 Y28.8849
G01 X2.4872 Y28.9742
G01 X2.7940 Y29.0045
G01 X3.1008 Y28.9742
G01 X3.3958 Y28.8849
G01 X3.6677 Y28.7395
G01 X3.9060 Y28.5440
G01 X4.1015 Y28.3057
G01 X4.2470 Y28.0337
G01 X4.3365 Y27.7388
G01 X4.3665 Y27.4320
G01 X4.3365 Y27.1252
G01 X4.2545 Y26.8551
G01 X4.2485 Y26.8313
G01 X4.2452 Y26.8139
G01 X4.2430 Y26.7984
G01 X4.2414 Y26.7808
G01 X4.2406 Y26.7592
G01 X4.2406 Y26.2966
G01 X4.2418 Y26.2692
G01 X4.2430 Y26.2575
G01 X4.2452 Y26.2419
G01 X4.2485 Y26.2245
G01 X4.2537 Y26.2036
G01 X4.2571 Y26.1923
G01 X4.2623 Y26.1775
G01 X4.2713 Y26.1557
G01 X4.2781 Y26.1416
G01 X4.2837 Y26.1312
G01 X4.2948 Y26.1127
G01 X4.3013 Y26.1029
G01 X4.3106 Y26.0902
G01 X4.3255 Y26.0720
G01 X4.3362 Y26.0605
G01 X4.3445 Y26.0521
G01 X4.3605 Y26.0376
G01 X4.3696 Y26.0302
G01 X4.3821 Y26.0207
G01 X4.4017 Y26.0076
G01 X4.4152 Y25.9997
G01 X4.4256 Y25.9941
G01 X4.4451 Y25.9849
G01 X4.4560 Y25.9804
G01 X4.4708 Y25.9750
G01 X4.4876 Y25.9697
G01 X4.5028 Y25.9657
G01 X4.5259 Y25.9611
G01 X4.5415 Y25.9590
G01 X4.5532 Y25.9578
G01 X4.5806 Y25.9566
G01 X27.5433 Y25.9566
G01 X27.8418 Y25.9273
G01 X28.1130 Y25.8449
G01 X28.3629 Y25.7113
G01 X28.5949 Y25.5211
G01 X30.8365 Y23.2795
G01 X30.8523 Y23.2648
G01 X30.8658 Y23.2535
G01 X30.8832 Y23.2406
G01 X30.8929 Y23.2341
G01 X30.9063 Y23.2259
G01 X30.9271 Y23.2148
G01 X30.9413 Y23.2082
G01 X30.9522 Y23.2037
G01 X30.9781 Y23.1946
G01 X31.1259 Y23.1497
G01 X31.4179 Y22.9935
G01 X31.6964 Y22.7651
G01 X31.7135 Y22.7520
G01 X31.7331 Y22.7389
G01 X31.7467 Y22.7309
G01 X31.7571 Y22.7254
G01 X31.7712 Y22.7185
G01 X31.7875 Y22.7117
G01 X31.8078 Y22.7044
G01 X31.8247 Y22.6994
G01 X31.8400 Y22.6957
G01 X31.8515 Y22.6934
G01 X31.8729 Y22.6903
G01 X31.8846 Y22.6891
G01 X31.9003 Y22.6882
G01 X31.9180 Y22.6880
G01 X31.9336 Y22.6887
G01 X31.9512 Y22.6903
G01 X31.9668 Y22.6924
G01 X31.9841 Y22.6957
G01 X31.9994 Y22.6994
G01 X32.0163 Y22.7044
G01 X32.0367 Y22.7117
G01 X32.0529 Y22.7186
G01 X32.0671 Y22.7254
G01 X32.0826 Y22.7339
G01 X32.0960 Y22.7420
G01 X32.1106 Y22.7520
G01 X32.1231 Y22.7614
G01 X32.1367 Y22.7728
G01 X32.1525 Y22.7875
G01 X39.9139 Y30.5486
G01 X40.1069 Y30.7072
G01 X40.3127 Y30.8171
G01 X40.5360 Y30.8848
G01 X40.7847 Y30.9094
G01 X78.7233 Y30.9094
G01 X78.9720 Y30.8848
G01 X79.1953 Y30.8171
G01 X79.4011 Y30.7072
G01 X79.5941 Y30.5486
G01 X86.1746 Y23.9681
G01 X86.3332 Y23.7751
G01 X86.4431 Y23.5693
G01 X86.5108 Y23.3460
G01 X86.5354 Y23.0973
G01 X86.5354 Y18.3047
G01 X86.5108 Y18.0560
G01 X86.4431 Y17.8327
G01 X86.3332 Y17.6269
G01 X86.1746 Y17.4339
G01 X84.4223 Y15.6813
G01 X84.4137 Y15.6719
G01 X84.4024 Y15.6583
G01 X84.3896 Y15.6410
G01 X84.3830 Y15.6312
G01 X84.3748 Y15.6178
G01 X84.3637 Y15.5970
G01 X84.3571 Y15.5828
G01 X84.3526 Y15.5719
G01 X84.3454 Y15.5516
G01 X84.3419 Y15.5403
G01 X84.3380 Y15.5251
G01 X84.3334 Y15.5020
G01 X84.3312 Y15.4864
G01 X84.3296 Y15.4688
G01 X84.3290 Y15.4532
G01 X84.3292 Y15.4355
G01 X84.3301 Y15.4198
G01 X84.3320 Y15.4022
G01 X84.3344 Y15.3867
G01 X84.3380 Y15.3694
G01 X84.3419 Y15.3542
G01 X84.3454 Y15.3430
G01 X84.3505 Y15.3281
G01 X84.3571 Y15.3118
G01 X84.3637 Y15.2975
G01 X84.3719 Y15.2819
G01 X84.3799 Y15.2683
G01 X84.3896 Y15.2536
G01 X84.3988 Y15.2409
G01 X84.4137 Y15.2227
G01 X84.4285 Y15.2068
G01 X84.9948 Y14.6405
G01 X85.1694 Y14.4279
G01 X85.2910 Y14.2002
G01 X85.3660 Y13.9532
G01 X85.3929 Y13.6793
G01 X85.3929 Y11.4466
G01 X85.3660 Y11.1730
G01 X85.2910 Y10.9257
G01 X85.1694 Y10.6981
G01 X84.9948 Y10.4857
G01 X82.4783 Y7.9692
G01 X82.2659 Y7.7946
G01 X82.0381 Y7.6730
G01 X81.7910 Y7.5980
G01 X81.5174 Y7.5711
G01 X32.0716 Y7.5711
G01 X32.0451 Y7.5700
G01 X32.0282 Y7.5683
G01 X32.0133 Y7.5660
G01 X31.9966 Y7.5627
G01 X31.9820 Y7.5590
G01 X31.9657 Y7.5541
G01 X31.9514 Y7.5491
G01 X31.9357 Y7.5427
G01 X31.9220 Y7.5363
G01 X31.9069 Y7.5285
G01 X31.8938 Y7.5209
G01 X31.8796 Y7.5116
G01 X31.8673 Y7.5028
G01 X31.8539 Y7.4923
G01 X31.8426 Y7.4823
G01 X31.8303 Y7.4706
G01 X31.8199 Y7.4596
G01 X31.8029 Y7.4393
G01 X31.7896 Y7.4210
G01 X31.7757 Y7.3985
G01 X31.7647 Y7.3776
G01 X31.7041 Y7.2478
G01 X31.6991 Y7.2363
G01 X31.6929 Y7.2207
G01 X31.6870 Y7.2029
G01 X31.6825 Y7.1867
G01 X31.6784 Y7.1684
G01 X31.6756 Y7.1519
G01 X31.6735 Y7.1332
G01 X31.6725 Y7.1165
G01 X31.6723 Y7.0977
G01 X31.6730 Y7.0810
G01 X31.6748 Y7.0623
G01 X31.6772 Y7.0457
G01 X31.6796 Y7.0334
G01 X31.6835 Y7.0171
G01 X31.6868 Y7.0051
G01 X31.7858 Y6.6793
G01 X31.8181 Y6.3500
G01 X31.7857 Y6.0206
G01 X31.6896 Y5.7040
G01 X31.5337 Y5.4120
G01 X31.3238 Y5.1562
G01 X31.0680 Y4.9463
G01 X30.7760 Y4.7904
G01 X30.4594 Y4.6942
G01 X30.1300 Y4.6619
G01 X29.8006 Y4.6942
G01 X29.4840 Y4.7903
G01 X29.2903 Y4.8939
G01 X29.2655 Y4.9058
G01 X29.2546 Y4.9103
G01 X29.2399 Y4.9157
G01 X29.2230 Y4.9210
G01 X29.2078 Y4.9250
G01 X29.1905 Y4.9286
G01 X29.1750 Y4.9310
G01 X29.1574 Y4.9329
G01 X29.1418 Y4.9338
G01 X29.1241 Y4.9340
G01 X29.1084 Y4.9333
G01 X29.0908 Y4.9317
G01 X29.0752 Y4.9296
G01 X29.0521 Y4.9250
G01 X29.0369 Y4.9210
G01 X29.0201 Y4.9157
G01 X29.0053 Y4.9103
G01 X28.9945 Y4.9058
G01 X28.9723 Y4.8953
G01 X28.7759 Y4.7903
G01 X28.4594 Y4.6942
G01 X28.1300 Y4.6619
G01 X27.8006 Y4.6942
G01 X27.4829 Y4.7907
G01 X27.4684 Y4.7974
G01 X27.4575 Y4.8019
G01 X27.4372 Y4.8093
G01 X27.4259 Y4.8127
G01 X27.4107 Y4.8167
G01 X27.3876 Y4.8213
G01 X27.3720 Y4.8235
G01 X27.3602 Y4.8247
G01 X27.3387 Y4.8257
G01 X27.3269 Y4.8258
G01 X27.3112 Y4.8251
G01 X27.2935 Y4.8236
G01 X27.2721 Y4.8204
G01 X27.2606 Y4.8181
G01 X27.2453 Y4.8144
G01 X27.2283 Y4.8095
G01 X27.2080 Y4.8022
G01 X27.1917 Y4.7953
G01 X27.1775 Y4.7884
G01 X27.1620 Y4.7800
G01 X27.1486 Y4.7718
G01 X27.1339 Y4.7618
G01 X27.1214 Y4.7524
G01 X27.1078 Y4.7410
G01 X27.0920 Y4.7263
G01 X25.1648 Y2.7989
G01 X24.9329 Y2.6087
G01 X24.6830 Y2.4751
G01 X24.4118 Y2.3927
G01 X24.1133 Y2.3634
G01 X16.3367 Y2.3634
G01 X16.0382 Y2.3927
G01 X15.7670 Y2.4751
G01 X15.5171 Y2.6087
G01 X15.2852 Y2.7989
G01 X12.9137 Y5.1703
G01 X12.8935 Y5.1889
G01 X12.8844 Y5.1963
G01 X12.8719 Y5.2058
G01 X12.8572 Y5.2157
G01 X12.8439 Y5.2239
G01 X12.8231 Y5.2350
G01 X12.8088 Y5.2416
G01 X12.7925 Y5.2482
G01 X12.7776 Y5.2534
G01 X12.7663 Y5.2568
G01 X12.7512 Y5.2608
G01 X12.7339 Y5.2644
G01 X12.7125 Y5.2675
G01 X12.6949 Y5.2691
G01 X12.6763 Y5.2698
G01 X10.5000 Y5.2699
G01 X10.5000 Y7.9400
G01 X10.4988 Y7.9675
G01 X10.4976 Y7.9792
G01 X10.4955 Y7.9948
G01 X10.4909 Y8.0179
G01 X10.4869 Y8.0331
G01 X10.4835 Y8.0443
G01 X10.4762 Y8.0647
G01 X10.4717 Y8.0755
G01 X10.4651 Y8.0898
G01 X10.4540 Y8.1106
G01 X10.4458 Y8.1240
G01 X10.4359 Y8.1386
G01 X10.4264 Y8.1511
G01 X10.4190 Y8.1602
G01 X10.4045 Y8.1762
G01 X10.3919 Y8.1886
G01 X10.3802 Y8.1990
G01 X10.3710 Y8.2065
G01 X10.3585 Y8.2160
G01 X10.3389 Y8.2290
G01 X10.3254 Y8.2370
G01 X10.3150 Y8.2425
G01 X10.2955 Y8.2518
G01 X10.2846 Y8.2563
G01 X10.2699 Y8.2617
G01 X10.2530 Y8.2670
G01 X10.2378 Y8.2709
G01 X10.2205 Y8.2745
G01 X10.1992 Y8.2777
G01 X10.1816 Y8.2793
G01 X10.1629 Y8.2800
G01 X9.6766 Y8.2800
G01 X9.6551 Y8.2793
G01 X9.6375 Y8.2777
G01 X9.6161 Y8.2745
G01 X9.5988 Y8.2709
G01 X9.5836 Y8.2670
G01 X9.5723 Y8.2635
G01 X9.5520 Y8.2563
G01 X9.5358 Y8.2494
G01 X9.5216 Y8.2425
G01 X9.5112 Y8.2370
G01 X9.4977 Y8.2290
G01 X9.4829 Y8.2193
G01 X9.4656 Y8.2065
G01 X9.4520 Y8.1952
G01 X9.4362 Y8.1805
G01 X8.4596 Y7.2038
G01 X8.4449 Y7.1880
G01 X8.4336 Y7.1745
G01 X8.4207 Y7.1571
G01 X8.4110 Y7.1424
G01 X8.4031 Y7.1288
G01 X8.3975 Y7.1184
G01 X8.3883 Y7.0989
G01 X8.3838 Y7.0880
G01 X8.3783 Y7.0733
G01 X8.3731 Y7.0564
G01 X8.3678 Y7.0355
G01 X8.3645 Y7.0181
G01 X8.3624 Y7.0026
G01 X8.3612 Y6.9909
G01 X8.3602 Y6.9722
G01 X8.3600 Y5.2699
G01 X4.5000 Y5.2699
G01 X4.5000 Y7.4464
G01 X4.4992 Y7.4650
G01 X4.4969 Y7.4885
G01 X4.4945 Y7.5040
G01 X4.4922 Y7.5155
G01 X4.4869 Y7.5365
G01 X4.4835 Y7.5478
G01 X4.4784 Y7.5626
G01 X4.4694 Y7.5844
G01 X4.4625 Y7.5985
G01 X4.4570 Y7.6089
G01 X4.4459 Y7.6274
G01 X4.4359 Y7.6420
G01 X4.4265 Y7.6545
G01 X4.4151 Y7.6681
G01 X4.4004 Y7.6839
G01 X1.6278 Y10.4565
G01 X1.6119 Y10.4713
G01 X1.5937 Y10.4862
G01 X1.5810 Y10.4955
G01 X1.5662 Y10.5052
G01 X1.5527 Y10.5131
G01 X1.5370 Y10.5213
G01 X1.5227 Y10.5279
G01 X1.5118 Y10.5324
G01 X1.4971 Y10.5378
G01 X1.4802 Y10.5431
G01 X1.4592 Y10.5483
G01 X1.4419 Y10.5516
G01 X1.4263 Y10.5538
G01 X1.4087 Y10.5554
G01 X1.3930 Y10.5560
G01 X1.3812 Y10.5560
G01 X1.3655 Y10.5553
G01 X1.3420 Y10.5530
G01 X1.3265 Y10.5505
G01 X1.3149 Y10.5482
G01 X1.2940 Y10.5430
G01 X1.2771 Y10.5377
G01 X1.2596 Y10.5312
G01 X1.1395 Y10.4813
G01 X1.0935 Y10.5921
G01 X1.0658 Y10.5795
G01 X1.0374 Y10.5641
G01 X1.0215 Y10.5544
G01 X1.0068 Y10.5445
G01 X0.9825 Y10.5263
G01 X0.9712 Y10.5169
G01 X0.9573 Y10.5046
G01 X0.9343 Y10.4817
G01 X0.9238 Y10.4701
G01 X0.9106 Y10.4543
G01 X0.8924 Y10.4299
G01 X0.8826 Y10.4153
G01 X0.8729 Y10.3994
G01 X0.8576 Y10.3709
G01 X0.8509 Y10.3567
G01 X0.8428 Y10.3377
G01 X0.8325 Y10.3092
G01 X0.8274 Y10.2923
G01 X0.8227 Y10.2742
G01 X0.8163 Y10.2425
G01 X0.8140 Y10.2270
G01 X0.8118 Y10.2065
G01 X0.8103 Y10.1806
G01 X0.8100 Y10.1674
G01 X0.8100 Y2.1844
G01 X0.8104 Y2.1682
G01 X0.8118 Y2.1467
G01 X0.8140 Y2.1261
G01 X0.8178 Y2.1018
G01 X0.8580 Y1.8997
G01 X0.8650 Y1.8702
G01 X0.8735 Y1.8422
G01 X0.8824 Y1.8179
G01 X0.9605 Y1.6289
G01 X0.9677 Y1.6127
G01 X0.9772 Y1.5932
G01 X0.9886 Y1.5724
G01 X1.0032 Y1.5490
G01 X1.1212 Y1.3729
G01 X1.1322 Y1.3580
G01 X1.1451 Y1.3420
G01 X1.1594 Y1.3258
G01 X1.1716 Y1.3130
G01 X1.3162 Y1.1685
G01 X1.3353 Y1.1509
G01 X1.3533 Y1.1358
G01 X1.3682 Y1.1246
G01 X1.3814 Y1.1153
G01 X1.5502 Y1.0024
G01 X1.5750 Y0.9871
G01 X1.6011 Y0.9732
G01 X1.6289 Y0.9605
G01 X1.8152 Y0.8835
G01 X1.8422 Y0.8735
G01 X1.8646 Y0.8665
G01 X1.8840 Y0.8615
G01 X1.8997 Y0.8580
G01 X2.1018 Y0.8178
G01 X2.1261 Y0.8140
G01 X2.1467 Y0.8118
G01 X2.1584 Y0.8109
G01 X2.1815 Y0.8100
G01 X86.4852 Y0.8100
G01 X86.5029 Y0.8104
G01 X86.5244 Y0.8118
G01 X86.5449 Y0.8140
G01 X86.5692 Y0.8178
G01 X86.8201 Y0.8676
G01 X86.8469 Y0.8739
G01 X86.8723 Y0.8813
G01 X86.9023 Y0.8921
G01 X87.1389 Y0.9901
G01 X87.1625 Y1.0009
G01 X87.1834 Y1.0117
G01 X87.2020 Y1.0226
G01 X87.2170 Y1.0320
G01 X87.4262 Y1.1718
G01 X87.4497 Y1.1888
G01 X87.4680 Y1.2036
G01 X87.4830 Y1.2170
G01 X87.4948 Y1.2282
G01 X87.6718 Y1.4052
G01 X87.6906 Y1.4253
G01 X87.7058 Y1.4434
G01 X87.7189 Y1.4606
G01 X87.7291 Y1.4750
G01 X87.8688 Y1.6843
G01 X87.8774 Y1.6980
G01 X87.8883 Y1.7166
G01 X87.8991 Y1.7375
G01 X87.9099 Y1.7611
G01 X88.0068 Y1.9950
G01 X88.0159 Y2.0193
G01 X88.0230 Y2.0418
G01 X88.0285 Y2.0627
G01 X88.0324 Y2.0799
G01 X88.0822 Y2.3308
G01 X88.0856 Y2.3521
G01 X88.0871 Y2.3638
G01 X88.0885 Y2.3785
G01 X88.0896 Y2.3986
G01 X88.0900 Y2.4148
G01 X88.0900 Y31.8752
G01 X88.0896 Y31.8929
G01 X88.0882 Y31.9144
G01 X88.0860 Y31.9349
G01 X88.0822 Y31.9591
G01 X88.0324 Y32.2103
G01 X88.0261 Y32.2371
G01 X88.0187 Y32.2626
G01 X88.0078 Y32.2927
G01 X87.9098 Y32.5290
G01 X87.8990 Y32.5526
G01 X87.8882 Y32.5735
G01 X87.8774 Y32.5921
G01 X87.8680 Y32.6070
G01 X87.7282 Y32.8162
G01 X87.7112 Y32.8397
G01 X87.6964 Y32.8580
G01 X87.6830 Y32.8730
G01 X87.6718 Y32.8848
G01 X87.4948 Y33.0618
G01 X87.4747 Y33.0806
G01 X87.4566 Y33.0958
G01 X87.4394 Y33.1089
G01 X87.4250 Y33.1191
G01 X87.2157 Y33.2588
G01 X87.2020 Y33.2674
G01 X87.1834 Y33.2783
G01 X87.1625 Y33.2891
G01 X87.1389 Y33.2999
G01 X86.9023 Y33.3979
G01 X86.8807 Y33.4059
G01 X86.8695 Y33.4096
G01 X86.8497 Y33.4154
G01 X86.8259 Y33.4212
G01 X86.5750 Y33.4712
G01 X86.5576 Y33.4742
G01 X86.5362 Y33.4771
G01 X86.5127 Y33.4791
G01 X86.4852 Y33.4800
G01 X2.1268 Y33.4800
G01 X2.1008 Y33.4791
G01 X2.0773 Y33.4771
G01 X2.0559 Y33.4742
G01 X2.0385 Y33.4712
G01 X1.8431 Y33.4321
G01 X1.8249 Y33.4276
G01 X1.8051 Y33.4217
G01 X1.7939 Y33.4180
G01 X1.7736 Y33.4105
G01 X1.5935 Y33.3358
G01 X1.5699 Y33.3251
G01 X1.5491 Y33.3143
G01 X1.5306 Y33.3035
G01 X1.5169 Y33.2949
G01 X1.3597 Y33.1900
G01 X1.3453 Y33.1798
G01 X1.3281 Y33.1667
G01 X1.3100 Y33.1515
G01 X1.2899 Y33.1327
G01 X1.1563 Y32.9990
G01 X1.1451 Y32.9873
G01 X1.1327 Y32.9733
G01 X1.1179 Y32.9550
G01 X1.1025 Y32.9339
G01 X0.9959 Y32.7743
G01 X0.9865 Y32.7594
G01 X0.9757 Y32.7409
G01 X0.9662 Y32.7227
G01 X0.9553 Y32.6992
G01 X0.8800 Y32.5178
G01 X0.8692 Y32.4877
G01 X0.8617 Y32.4622
G01 X0.8554 Y32.4354
G01 X0.8178 Y32.2457
G01 X0.8140 Y32.2214
G01 X0.8118 Y32.2009
G01 X0.8109 Y32.1892
G01 X0.8100 Y32.1662
G01 X0.8100 Y28.7663
G01 X0.8110 Y28.7370
G01 X0.8137 Y28.7088
G01 X0.8158 Y28.6938
G01 X0.8194 Y28.6743
G01 X0.8247 Y28.6513
G01 X0.8335 Y28.6214
G01 X0.8395 Y28.6045
G01 X0.8447 Y28.5913
G01 X0.8542 Y28.5697
G01 X0.8671 Y28.5445
G01 X0.8746 Y28.5314
G01 X0.8851 Y28.5145
G01 X0.9019 Y28.4906
G01 X0.9123 Y28.4771
G01 X0.9239 Y28.4634
G01 X0.9315 Y28.4550
G01 X0.9472 Y28.4387
G01 X0.9602 Y28.4263
G01 X0.9730 Y28.4151
G01 X0.9960 Y28.3969
G01 X1.0121 Y28.3854
G01 X1.0248 Y28.3772
G01 X1.0442 Y28.3656
G01 X1.0600 Y28.3571
G01 X1.0882 Y28.3438
G01 X1.1141 Y28.3335
G01 X1.2365 Y28.2898
G01 X1.2526 Y28.2846
G01 X1.2712 Y28.2792
G01 X1.2891 Y28.2748
G01 X1.3081 Y28.2710
G01 X1.3354 Y28.2669
G01 X1.3547 Y28.2650
G01 X1.3670 Y28.2643
G01 X1.3884 Y28.2637
G01 X1.4048 Y28.2639
G01 X1.4354 Y28.2660
G01 X1.4607 Y28.2692
G01 X1.4758 Y28.2718
G01 X1.4948 Y28.2759
G01 X1.5067 Y28.2789
G01 X1.5274 Y28.2848
G01 X1.5515 Y28.2931
G01 X1.5658 Y28.2988
G01 X1.5835 Y28.3066
G01 X1.6082 Y28.3190
G01 X1.6251 Y28.3285
G01 X1.6355 Y28.3350
G01 X1.6534 Y28.3468
G01 X1.6715 Y28.3602
G01 X1.6858 Y28.3718
G01 X1.7027 Y28.3866
G01 X1.7202 Y28.4038
G01 X1.7344 Y28.4192
G01 X1.7444 Y28.4308
G01 X1.7674 Y28.4588
G01 X1.9873 Y28.6393
G01 X2.2383 Y28.7735
G01 X2.5107 Y28.8560
G01 X2.7940 Y28.8839
G01 X3.0773 Y28.8560
G01 X3.3497 Y28.7735
G01 X3.6007 Y28.6393
G01 X3.8207 Y28.4587
G01 X4.0013 Y28.2387
G01 X4.1356 Y27.9876
G01 X4.2182 Y27.7153
G01 X4.2459 Y27.4320
G01 X4.2182 Y27.1487
G01 X4.1388 Y26.8871
G01 X4.1327 Y26.8634
G01 X4.1285 Y26.8432
G01 X4.1250 Y26.8218
G01 X4.1236 Y26.8101
G01 X4.1216 Y26.7866
G01 X4.1206 Y26.7592
G01 X4.1206 Y26.2966
G01 X4.1216 Y26.2692
G01 X4.1239 Y26.2428
G01 X4.1285 Y26.2127
G01 X4.1327 Y26.1925
G01 X4.1365 Y26.1773
G01 X4.1460 Y26.1463
G01 X4.1524 Y26.1288
G01 X4.1592 Y26.1125
G01 X4.1723 Y26.0850
G01 X4.1822 Y26.0670
G01 X4.1903 Y26.0535
G01 X4.2083 Y26.0266
G01 X4.2196 Y26.0117
G01 X4.2289 Y26.0003
G01 X4.2493 Y25.9777
G01 X4.2617 Y25.9652
G01 X4.2754 Y25.9526
G01 X4.2958 Y25.9356
G01 X4.3203 Y25.9175
G01 X4.3325 Y25.9094
G01 X4.3484 Y25.8996
G01 X4.3769 Y25.8843
G01 X4.3911 Y25.8776
G01 X4.4101 Y25.8695
G01 X4.4387 Y25.8592
G01 X4.4556 Y25.8540
G01 X4.4737 Y25.8493
G01 X4.4852 Y25.8468
G01 X4.5083 Y25.8424
G01 X4.5268 Y25.8399
G01 X4.5444 Y25.8382
G01 X4.5644 Y25.8370
G01 X4.5806 Y25.8366
G01 X27.5374 Y25.8366
G01 X27.8183 Y25.8090
G01 X28.0668 Y25.7335
G01 X28.2959 Y25.6110
G01 X28.5142 Y25.4321
G01 X30.7516 Y23.1946
G01 X30.7717 Y23.1759
G01 X30.7920 Y23.1589
G01 X30.8165 Y23.1408
G01 X30.8287 Y23.1327
G01 X30.8446 Y23.1230
G01 X30.8679 Y23.1102
G01 X30.8954 Y23.0973
G01 X30.9145 Y23.0896
G01 X30.9390 Y23.0811
G01 X31.0797 Y23.0383
G01 X31.3509 Y22.8933
G01 X31.6249 Y22.6686
G01 X31.6445 Y22.6538
G01 X31.6640 Y22.6406
G01 X31.6824 Y22.6294
G01 X31.7005 Y22.6196
G01 X31.7226 Y22.6088
G01 X31.7498 Y22.5976
G01 X31.7701 Y22.5904
G01 X31.7956 Y22.5830
G01 X31.8166 Y22.5780
G01 X31.8310 Y22.5752
G01 X31.8494 Y22.5723
G01 X31.8758 Y22.5694
G01 X31.9032 Y22.5681
G01 X31.9268 Y22.5682
G01 X31.9483 Y22.5694
G01 X31.9718 Y22.5719
G01 X31.9931 Y22.5752
G01 X32.0162 Y22.5799
G01 X32.0371 Y22.5853
G01 X32.0596 Y22.5923
G01 X32.0799 Y22.5997
G01 X32.1016 Y22.6088
G01 X32.1210 Y22.6182
G01 X32.1417 Y22.6294
G01 X32.1602 Y22.6407
G01 X32.1797 Y22.6539
G01 X32.1969 Y22.6668
G01 X32.2150 Y22.6819
G01 X32.2342 Y22.6995
G01 X39.9946 Y30.4596
G01 X40.1739 Y30.6070
G01 X40.3588 Y30.7057
G01 X40.5595 Y30.7666
G01 X40.7906 Y30.7894
G01 X78.7174 Y30.7894
G01 X78.9485 Y30.7666
G01 X79.1492 Y30.7057
G01 X79.3341 Y30.6070
G01 X79.5134 Y30.4596
G01 X86.0856 Y23.8874
G01 X86.2330 Y23.7081
G01 X86.3317 Y23.5232
G01 X86.3926 Y23.3225
G01 X86.4154 Y23.0914
G01 X86.4154 Y18.3106
G01 X86.3926 Y18.0795
G01 X86.3317 Y17.8788
G01 X86.2330 Y17.6939
G01 X86.0856 Y17.5146
G01 X84.3436 Y15.7725
G01 X84.3324 Y15.7608
G01 X84.3190 Y15.7458
G01 X84.3078 Y15.7321
G01 X84.2948 Y15.7149
G01 X84.2832 Y15.6979
G01 X84.2719 Y15.6795
G01 X84.2661 Y15.6692
G01 X84.2565 Y15.6510
G01 X84.2498 Y15.6368
G01 X84.2407 Y15.6151
G01 X84.2342 Y15.5976
G01 X84.2305 Y15.5864
G01 X84.2240 Y15.5638
G01 X84.2196 Y15.5456
G01 X84.2152 Y15.5225
G01 X84.2129 Y15.5070
G01 X84.2107 Y15.4865
G01 X84.2098 Y15.4747
G01 X84.2090 Y15.4532
G01 X84.2092 Y15.4325
G01 X84.2104 Y15.4110
G01 X84.2121 Y15.3934
G01 X84.2147 Y15.3749
G01 X84.2167 Y15.3633
G01 X84.2216 Y15.3403
G01 X84.2263 Y15.3222
G01 X84.2333 Y15.2997
G01 X84.2407 Y15.2795
G01 X84.2474 Y15.2631
G01 X84.2565 Y15.2436
G01 X84.2661 Y15.2253
G01 X84.2719 Y15.2150
G01 X84.2832 Y15.1967
G01 X84.2948 Y15.1796
G01 X84.3097 Y15.1601
G01 X84.3248 Y15.1421
G01 X84.3426 Y15.1230
G01 X84.9058 Y14.5598
G01 X85.0691 Y14.3609
G01 X85.1796 Y14.1541
G01 X85.2478 Y13.9296
G01 X85.2729 Y13.6734
G01 X85.2729 Y11.4525
G01 X85.2478 Y11.1965
G01 X85.1796 Y10.9718
G01 X85.0692 Y10.7651
G01 X84.9059 Y10.5664
G01 X82.3976 Y8.0581
G01 X82.1989 Y7.8949
G01 X81.9920 Y7.7844
G01 X81.7674 Y7.7162
G01 X81.5115 Y7.6911
G01 X32.0716 Y7.6911
G01 X32.0560 Y7.6908
G01 X32.0366 Y7.6897
G01 X32.0197 Y7.6881
G01 X31.9991 Y7.6853
G01 X31.9768 Y7.6812
G01 X31.9566 Y7.6764
G01 X31.9348 Y7.6702
G01 X31.9151 Y7.6636
G01 X31.8940 Y7.6554
G01 X31.8776 Y7.6481
G01 X31.8573 Y7.6380
G01 X31.8391 Y7.6280
G01 X31.8198 Y7.6160
G01 X31.8104 Y7.6097
G01 X31.7958 Y7.5992
G01 X31.7780 Y7.5852
G01 X31.7623 Y7.5716
G01 X31.7459 Y7.5559
G01 X31.7354 Y7.5450
G01 X31.7222 Y7.5302
G01 X31.7039 Y7.5074
G01 X31.6939 Y7.4936
G01 X31.6840 Y7.4787
G01 X31.6780 Y7.4691
G01 X31.6667 Y7.4494
G01 X31.6548 Y7.4258
G01 X31.5903 Y7.2871
G01 X31.5828 Y7.2687
G01 X31.5754 Y7.2480
G01 X31.5687 Y7.2260
G01 X31.5656 Y7.2139
G01 X31.5608 Y7.1924
G01 X31.5570 Y7.1698
G01 X31.5541 Y7.1448
G01 X31.5526 Y7.1219
G01 X31.5522 Y7.1031
G01 X31.5528 Y7.0801
G01 X31.5548 Y7.0551
G01 X31.5578 Y7.0323
G01 X31.5638 Y7.0015
G01 X31.5715 Y6.9717
G01 X31.6675 Y6.6558
G01 X31.6975 Y6.3500
G01 X31.6675 Y6.0442
G01 X31.5782 Y5.7501
G01 X31.4334 Y5.4790
G01 X31.2385 Y5.2415
G01 X31.0010 Y5.0465
G01 X30.7299 Y4.9018
G01 X30.4358 Y4.8125
G01 X30.1300 Y4.7825
G01 X29.8241 Y4.8125
G01 X29.5302 Y4.9017
G01 X29.3417 Y5.0025
G01 X29.3222 Y5.0119
G01 X29.3115 Y5.0167
G01 X29.2978 Y5.0223
G01 X29.2803 Y5.0287
G01 X29.2494 Y5.0382
G01 X29.2341 Y5.0421
G01 X29.2140 Y5.0463
G01 X29.1839 Y5.0508
G01 X29.1663 Y5.0526
G01 X29.1477 Y5.0537
G01 X29.1241 Y5.0540
G01 X29.1123 Y5.0537
G01 X29.0908 Y5.0523
G01 X29.0673 Y5.0497
G01 X29.0489 Y5.0468
G01 X29.0258 Y5.0421
G01 X29.0049 Y5.0367
G01 X28.9824 Y5.0297
G01 X28.9676 Y5.0244
G01 X28.9485 Y5.0167
G01 X28.9377 Y5.0119
G01 X28.9183 Y5.0025
G01 X28.7298 Y4.9017
G01 X28.4358 Y4.8125
G01 X28.1300 Y4.7825
G01 X27.8241 Y4.8125
G01 X27.5264 Y4.9029
G01 X27.5145 Y4.9082
G01 X27.4954 Y4.9160
G01 X27.4806 Y4.9213
G01 X27.4609 Y4.9275
G01 X27.4400 Y4.9330
G01 X27.4285 Y4.9356
G01 X27.4082 Y4.9395
G01 X27.3927 Y4.9418
G01 X27.3633 Y4.9448
G01 X27.3388 Y4.9457
G01 X27.3240 Y4.9457
G01 X27.3054 Y4.9450
G01 X27.2789 Y4.9427
G01 X27.2488 Y4.9381
G01 X27.2344 Y4.9352
G01 X27.2162 Y4.9309
G01 X27.1907 Y4.9234
G01 X27.1648 Y4.9142
G01 X27.1431 Y4.9050
G01 X27.1236 Y4.8957
G01 X27.1029 Y4.8844
G01 X27.0844 Y4.8732
G01 X27.0649 Y4.8600
G01 X27.0476 Y4.8470
G01 X27.0294 Y4.8319
G01 X27.0103 Y4.8142
G01 X25.0842 Y2.8879
G01 X24.8659 Y2.7090
G01 X24.6368 Y2.5865
G01 X24.3882 Y2.5110
G01 X24.1074 Y2.4834
G01 X16.3426 Y2.4834
G01 X16.0618 Y2.5110
G01 X15.8132 Y2.5865
G01 X15.5841 Y2.7090
G01 X15.3658 Y2.8879
G01 X12.9976 Y5.2562
G01 X12.9858 Y5.2673
G01 X12.9719 Y5.2797
G01 X12.9582 Y5.2909
G01 X12.9433 Y5.3022
G01 X12.9239 Y5.3155
G01 X12.9140 Y5.3218
G01 X12.8979 Y5.3312
G01 X12.8823 Y5.3396
G01 X12.8575 Y5.3513
G01 X12.8329 Y5.3612
G01 X12.8153 Y5.3673
G01 X12.8012 Y5.3716
G01 X12.7803 Y5.3772
G01 X12.7544 Y5.3826
G01 X12.7330 Y5.3859
G01 X12.7037 Y5.3888
G01 X12.6792 Y5.3898
G01 X10.6200 Y5.3899
G01 X10.6200 Y7.9400
G01 X10.6191 Y7.9675
G01 X10.6167 Y7.9939
G01 X10.6122 Y8.0240
G01 X10.6080 Y8.0442
G01 X10.6026 Y8.0651
G01 X10.5975 Y8.0820
G01 X10.5913 Y8.0996
G01 X10.5790 Y8.1295
G01 X10.5723 Y8.1437
G01 X10.5628 Y8.1620
G01 X10.5472 Y8.1882
G01 X10.5374 Y8.2028
G01 X10.5265 Y8.2179
G01 X10.5192 Y8.2272
G01 X10.5040 Y8.2452
G01 X10.4914 Y8.2589
G01 X10.4789 Y8.2714
G01 X10.4563 Y8.2918
G01 X10.4402 Y8.3047
G01 X10.4276 Y8.3141
G01 X10.4081 Y8.3273
G01 X10.3922 Y8.3370
G01 X10.3637 Y8.3524
G01 X10.3495 Y8.3591
G01 X10.3305 Y8.3671
G01 X10.3019 Y8.3775
G01 X10.2850 Y8.3826
G01 X10.2670 Y8.3873
G01 X10.2410 Y8.3927
G01 X10.2197 Y8.3961
G01 X10.1904 Y8.3989
G01 X10.1659 Y8.4000
G01 X9.6766 Y8.4000
G01 X9.6492 Y8.3991
G01 X9.6228 Y8.3968
G01 X9.6014 Y8.3938
G01 X9.5725 Y8.3880
G01 X9.5488 Y8.3818
G01 X9.5347 Y8.3775
G01 X9.5171 Y8.3714
G01 X9.4925 Y8.3615
G01 X9.4677 Y8.3497
G01 X9.4444 Y8.3370
G01 X9.4285 Y8.3273
G01 X9.4163 Y8.3191
G01 X9.3964 Y8.3047
G01 X9.3736 Y8.2860
G01 X9.3514 Y8.2653
G01 X8.3747 Y7.2887
G01 X8.3626 Y7.2759
G01 X8.3483 Y7.2597
G01 X8.3353 Y7.2436
G01 X8.3209 Y7.2238
G01 X8.3128 Y7.2115
G01 X8.3030 Y7.1956
G01 X8.2877 Y7.1671
G01 X8.2774 Y7.1448
G01 X8.2697 Y7.1257
G01 X8.2644 Y7.1109
G01 X8.2551 Y7.0799
G01 X8.2507 Y7.0618
G01 X8.2473 Y7.0445
G01 X8.2429 Y7.0143
G01 X8.2415 Y6.9997
G01 X8.2404 Y6.9811
G01 X8.2400 Y6.9634
G01 X8.2400 Y5.3899
G01 X4.6200 Y5.3899
G01 X4.6200 Y7.4435
G01 X4.6197 Y7.4567
G01 X4.6182 Y7.4827
G01 X4.6160 Y7.5032
G01 X4.6137 Y7.5187
G01 X4.6073 Y7.5505
G01 X4.6026 Y7.5685
G01 X4.5984 Y7.5826
G01 X4.5882 Y7.6113
G01 X4.5778 Y7.6357
G01 X4.5697 Y7.6524
G01 X4.5628 Y7.6654
G01 X4.5472 Y7.6916
G01 X4.5340 Y7.7111
G01 X4.5192 Y7.7306
G01 X4.5041 Y7.7487
G01 X4.4853 Y7.7687
G01 X1.7126 Y10.5414
G01 X1.6998 Y10.5536
G01 X1.6836 Y10.5679
G01 X1.6675 Y10.5808
G01 X1.6549 Y10.5902
G01 X1.6354 Y10.6034
G01 X1.6195 Y10.6132
G01 X1.6092 Y10.6190
G01 X1.5883 Y10.6298
G01 X1.5713 Y10.6376
G01 X1.5550 Y10.6444
G01 X1.5347 Y10.6518
G01 X1.5150 Y10.6580
G01 X1.5036 Y10.6611
G01 X1.4826 Y10.6661
G01 X1.4623 Y10.6699
G01 X1.4468 Y10.6722
G01 X1.4233 Y10.6746
G01 X1.4047 Y10.6757
G01 X1.3929 Y10.6760
G01 X1.3693 Y10.6757
G01 X1.3507 Y10.6746
G01 X1.3331 Y10.6728
G01 X1.3030 Y10.6682
G01 X1.2828 Y10.6640
G01 X1.2675 Y10.6602
G01 X1.2393 Y10.6516
G01 X1.2163 Y10.6431
G01 X1.0935 Y10.5921
G01 X0.6997 Y11.2125
G01 X0.7965 Y11.1156
G01 X0.7769 Y11.1056
G01 X0.7747 Y11.1044
G01 X0.7642 Y11.0988
G01 X0.7623 Y11.0978
G01 X0.7527 Y11.0924
G01 X0.7329 Y11.0811
G01 X0.7098 Y11.0671
G01 X0.6997 Y11.2125
G01 X0.5576 Y11.5243
G01 X1.0062 Y11.0757
G01 X0.9052 Y11.0337
G01 X0.8734 Y11.0195
G01 X0.8496 Y11.0080
G01 X0.8360 Y11.0010
G01 X0.8347 Y11.0004
G01 X0.8345 Y11.0003
G01 X0.8332 Y10.9996
G01 X0.8317 Y10.9988
G01 X0.8209 Y10.9930
G01 X0.7997 Y10.9811
G01 X0.7801 Y10.9695
G01 X0.7569 Y10.9548
G01 X0.7331 Y10.9388
G01 X0.7135 Y10.9248
G01 X0.6880 Y10.9054
G01 X0.6652 Y10.8868
G01 X0.6458 Y10.8701
G01 X0.6253 Y10.8513
G01 X0.6059 Y10.8324
G01 X0.5576 Y11.5243
G01 X0.4155 Y11.8360
G01 X1.2307 Y11.0209
G01 X1.2021 Y11.0148
G01 X1.1740 Y11.0078
G01 X1.1415 Y10.9983
G01 X1.1163 Y10.9899
G01 X1.0958 Y10.9825
G01 X1.0762 Y10.9748
G01 X0.9437 Y10.9196
G01 X0.9236 Y10.9105
G01 X0.9106 Y10.9043
G01 X0.9049 Y10.9015
G01 X0.9036 Y10.9009
G01 X0.8984 Y10.8982
G01 X0.8980 Y10.8980
G01 X0.8747 Y10.8856
G01 X0.8558 Y10.8749
G01 X0.8364 Y10.8632
G01 X0.8187 Y10.8519
G01 X0.7945 Y10.8353
G01 X0.7744 Y10.8205
G01 X0.7550 Y10.8053
G01 X0.7313 Y10.7855
G01 X0.7123 Y10.7684
G01 X0.6948 Y10.7516
G01 X0.6734 Y10.7298
G01 X0.6559 Y10.7106
G01 X0.6399 Y10.6919
G01 X0.6192 Y10.6660
G01 X0.6020 Y10.6428
G01 X0.5848 Y10.6176
G01 X0.5729 Y10.5990
G01 X0.5588 Y10.5754
G01 X0.5435 Y10.5473
G01 X0.5327 Y10.5260
G01 X0.5218 Y10.5028
G01 X0.5105 Y10.4762
G01 X0.4155 Y11.8360
G01 X0.2735 Y12.1478
G01 X1.5175 Y10.9038
G01 X1.5003 Y10.9069
G01 X1.4789 Y10.9100
G01 X1.4437 Y10.9138
G01 X1.4096 Y10.9157
G01 X1.3750 Y10.9159
G01 X1.3409 Y10.9145
G01 X1.3057 Y10.9113
G01 X1.2726 Y10.9066
G01 X1.2379 Y10.8999
G01 X1.2061 Y10.8922
G01 X1.1778 Y10.8839
G01 X1.1561 Y10.8767
G01 X1.1266 Y10.8657
G01 X1.0014 Y10.8138
G01 X0.9852 Y10.8067
G01 X0.9650 Y10.7973
G01 X0.9636 Y10.7967
G01 X0.9630 Y10.7963
G01 X0.9597 Y10.7947
G01 X0.9518 Y10.7907
G01 X0.9208 Y10.7739
G01 X0.8923 Y10.7566
G01 X0.8636 Y10.7372
G01 X0.8370 Y10.7172
G01 X0.8148 Y10.6990
G01 X0.7900 Y10.6767
G01 X0.7660 Y10.6530
G01 X0.7439 Y10.6290
G01 X0.7236 Y10.6047
G01 X0.7029 Y10.5776
G01 X0.6846 Y10.5510
G01 X0.6720 Y10.5311
G01 X0.6554 Y10.5022
G01 X0.6406 Y10.4734
G01 X0.6267 Y10.4431
G01 X0.6146 Y10.4131
G01 X0.6028 Y10.3788
G01 X0.5945 Y10.3505
G01 X0.5885 Y10.3268
G01 X0.5824 Y10.2980
G01 X0.5789 Y10.2777
G01 X0.5751 Y10.2505
G01 X0.5724 Y10.2242
G01 X0.5707 Y10.1964
G01 X0.5701 Y10.1747
G01 X0.5700 Y7.9023
G01 X0.2735 Y12.1478
G01 X0.1298 Y12.4832
G01 X0.1613 Y12.4408
G01 X0.1818 Y12.4154
G01 X0.1929 Y12.4026
G01 X0.2276 Y12.3643
G01 X0.2462 Y12.3448
G01 X4.8500 Y7.7410
G01 X4.8500 Y6.1993
G01 X4.8505 Y6.1794
G01 X4.8514 Y6.1608
G01 X4.8535 Y6.1373
G01 X4.8555 Y6.1212
G01 X4.8602 Y6.0927
G01 X4.8637 Y6.0754
G01 X4.8687 Y6.0544
G01 X4.8773 Y6.0247
G01 X4.8872 Y5.9959
G01 X4.8989 Y5.9673
G01 X4.9131 Y5.9371
G01 X4.9279 Y5.9099
G01 X4.9438 Y5.8840
G01 X4.9613 Y5.8585
G01 X4.9744 Y5.8413
G01 X4.9855 Y5.8276
G01 X5.0066 Y5.8037
G01 X5.0273 Y5.7827
G01 X5.0486 Y5.7632
G01 X5.0760 Y5.7407
G01 X5.0993 Y5.7236
G01 X5.1264 Y5.7059
G01 X5.1463 Y5.6942
G01 X5.1632 Y5.6852
G01 X5.1776 Y5.6779
G01 X5.1973 Y5.6689
G01 X5.2149 Y5.6615
G01 X5.2300 Y5.6557
G01 X5.2504 Y5.6486
G01 X5.2716 Y5.6422
G01 X5.2939 Y5.6363
G01 X5.3097 Y5.6327
G01 X5.3285 Y5.6291
G01 X5.3512 Y5.6255
G01 X5.3673 Y5.6235
G01 X5.3908 Y5.6214
G01 X5.4094 Y5.6205
G01 X5.4278 Y5.6200
G01 X7.4300 Y5.6200
G01 X7.4455 Y5.6203
G01 X7.4766 Y5.6220
G01 X7.5088 Y5.6255
G01 X7.5374 Y5.6302
G01 X7.5547 Y5.6337
G01 X7.5757 Y5.6387
G01 X7.6082 Y5.6482
G01 X7.6355 Y5.6577
G01 X7.6628 Y5.6689
G01 X7.6929 Y5.6831
G01 X7.7201 Y5.6979
G01 X7.7473 Y5.7146
G01 X7.7619 Y5.7245
G01 X7.7794 Y5.7372
G01 X7.8035 Y5.7565
G01 X7.8263 Y5.7766
G01 X7.8483 Y5.7984
G01 X7.8707 Y5.8231
G01 X7.8902 Y5.8471
G01 X7.9080 Y5.8717
G01 X7.9249 Y5.8977
G01 X7.9358 Y5.9163
G01 X7.9442 Y5.9319
G01 X7.9569 Y5.9579
G01 X7.9702 Y5.9890
G01 X7.9814 Y6.0204
G01 X7.9902 Y6.0501
G01 X7.9976 Y6.0811
G01 X8.0027 Y6.1086
G01 X8.0063 Y6.1359
G01 X8.0089 Y6.1652
G01 X8.0100 Y6.1971
G01 X8.0100 Y7.2609
G01 X9.3791 Y8.6300
G01 X10.8500 Y8.6300
G01 X10.8500 Y6.2000
G01 X10.8511 Y6.1667
G01 X10.8524 Y6.1490
G01 X10.8555 Y6.1212
G01 X10.8591 Y6.0985
G01 X10.8637 Y6.0754
G01 X10.8698 Y6.0501
G01 X10.8768 Y6.0261
G01 X10.8857 Y6.0000
G01 X10.8920 Y5.9836
G01 X10.9019 Y5.9605
G01 X10.9131 Y5.9371
G01 X10.9242 Y5.9163
G01 X10.9375 Y5.8939
G01 X10.9536 Y5.8693
G01 X10.9672 Y5.8506
G01 X10.9780 Y5.8367
G01 X10.9961 Y5.8153
G01 X11.0127 Y5.7973
G01 X11.0337 Y5.7766
G01 X11.0542 Y5.7584
G01 X11.0759 Y5.7407
G01 X11.0981 Y5.7245
G01 X11.1177 Y5.7114
G01 X11.1412 Y5.6971
G01 X11.1658 Y5.6838
G01 X11.1905 Y5.6719
G01 X11.2176 Y5.6604
G01 X11.2434 Y5.6509
G01 X11.2673 Y5.6434
G01 X11.2843 Y5.6387
G01 X11.3111 Y5.6325
G01 X11.3386 Y5.6274
G01 X11.3673 Y5.6235
G01 X11.3952 Y5.6212
G01 X11.4300 Y5.6200
G01 X12.9710 Y5.6200
G01 X15.5505 Y3.0405
G01 X15.5689 Y3.0228
G01 X15.6103 Y2.9854
G01 X15.6335 Y2.9658
G01 X15.6503 Y2.9526
G01 X15.6969 Y2.9181
G01 X15.7196 Y2.9025
G01 X15.7376 Y2.8911
G01 X15.7873 Y2.8613
G01 X15.8133 Y2.8470
G01 X15.8304 Y2.8384
G01 X15.8775 Y2.8161
G01 X15.8970 Y2.8074
G01 X15.9246 Y2.7964
G01 X15.9771 Y2.7775
G01 X15.9987 Y2.7704
G01 X16.0251 Y2.7627
G01 X16.0806 Y2.7487
G01 X16.1022 Y2.7439
G01 X16.1350 Y2.7379
G01 X16.1873 Y2.7302
G01 X16.2077 Y2.7277
G01 X16.2410 Y2.7249
G01 X16.2949 Y2.7223
G01 X16.3196 Y2.7217
G01 X24.1300 Y2.7217
G01 X24.1551 Y2.7223
G01 X24.2090 Y2.7249
G01 X24.2423 Y2.7277
G01 X24.2627 Y2.7302
G01 X24.3164 Y2.7381
G01 X24.3346 Y2.7413
G01 X24.3536 Y2.7451
G01 X24.4185 Y2.7610
G01 X24.4405 Y2.7671
G01 X24.4674 Y2.7756
G01 X24.5220 Y2.7951
G01 X24.5419 Y2.8028
G01 X24.5698 Y2.8149
G01 X24.6202 Y2.8387
G01 X24.6473 Y2.8527
G01 X24.6659 Y2.8632
G01 X24.7162 Y2.8934
G01 X24.7392 Y2.9084
G01 X24.7579 Y2.9215
G01 X24.8026 Y2.9548
G01 X24.8258 Y2.9734
G01 X24.8419 Y2.9874
G01 X24.8800 Y3.0219
G01 X24.8932 Y3.0343
G01 X26.8995 Y5.0405
G01 X26.9131 Y5.0546
G01 X26.9565 Y5.1025
G01 X26.9793 Y5.1298
G01 X27.0223 Y5.1875
G01 X27.0375 Y5.2095
G01 X27.0470 Y5.2244
G01 X27.0802 Y5.2799
G01 X27.0923 Y5.3020
G01 X27.1013 Y5.3198
G01 X27.1248 Y5.3695
G01 X27.1326 Y5.3870
G01 X27.1428 Y5.4125
G01 X27.1551 Y5.4464
G01 X27.1815 Y5.4178
G01 X27.2058 Y5.3939
G01 X27.2696 Y5.3360
G01 X27.2901 Y5.3188
G01 X27.3034 Y5.3083
G01 X27.3702 Y5.2587
G01 X27.4001 Y5.2382
G01 X27.4145 Y5.2292
G01 X27.4801 Y5.1899
G01 X27.4961 Y5.1808
G01 X27.5146 Y5.1710
G01 X27.5970 Y5.1318
G01 X27.6256 Y5.1194
G01 X27.6476 Y5.1109
G01 X27.7176 Y5.0859
G01 X27.7385 Y5.0790
G01 X27.7706 Y5.0698
G01 X27.8434 Y5.0516
G01 X27.8628 Y5.0472
G01 X27.8956 Y5.0411
G01 X27.9772 Y5.0290
G01 X28.0045 Y5.0260
G01 X28.0258 Y5.0244
G01 X28.1045 Y5.0205
G01 X28.1349 Y5.0201
G01 X28.1577 Y5.0206
G01 X28.2349 Y5.0244
G01 X28.2555 Y5.0260
G01 X28.2828 Y5.0290
G01 X28.3622 Y5.0407
G01 X28.3846 Y5.0447
G01 X28.4144 Y5.0510
G01 X28.4887 Y5.0696
G01 X28.5107 Y5.0757
G01 X28.5369 Y5.0840
G01 X28.6262 Y5.1161
G01 X28.6462 Y5.1243
G01 X28.6643 Y5.1324
G01 X28.7342 Y5.1655
G01 X28.7612 Y5.1794
G01 X28.7811 Y5.1906
G01 X28.8474 Y5.2304
G01 X28.8642 Y5.2411
G01 X28.8856 Y5.2557
G01 X28.9566 Y5.3083
G01 X28.9781 Y5.3255
G01 X28.9937 Y5.3390
G01 X29.0504 Y5.3904
G01 X29.0664 Y5.4056
G01 X29.0881 Y5.4280
G01 X29.1300 Y5.4741
G01 X29.1719 Y5.4280
G01 X29.1936 Y5.4056
G01 X29.2096 Y5.3904
G01 X29.2663 Y5.3390
G01 X29.2819 Y5.3255
G01 X29.3034 Y5.3083
G01 X29.3749 Y5.2553
G01 X29.3958 Y5.2411
G01 X29.4132 Y5.2300
G01 X29.4808 Y5.1895
G01 X29.5074 Y5.1748
G01 X29.5278 Y5.1645
G01 X29.5976 Y5.1315
G01 X29.6158 Y5.1235
G01 X29.6393 Y5.1140
G01 X29.7245 Y5.0835
G01 X29.7507 Y5.0753
G01 X29.7713 Y5.0696
G01 X29.8456 Y5.0510
G01 X29.8753 Y5.0447
G01 X29.8978 Y5.0407
G01 X29.9779 Y5.0289
G01 X30.0052 Y5.0259
G01 X30.0258 Y5.0244
G01 X30.1045 Y5.0205
G01 X30.1349 Y5.0201
G01 X30.1577 Y5.0206
G01 X30.2378 Y5.0246
G01 X30.2660 Y5.0270
G01 X30.2886 Y5.0298
G01 X30.3643 Y5.0411
G01 X30.3943 Y5.0466
G01 X30.4165 Y5.0516
G01 X30.4965 Y5.0717
G01 X30.5207 Y5.0788
G01 X30.5369 Y5.0840
G01 X30.6131 Y5.1112
G01 X30.6435 Y5.1232
G01 X30.6650 Y5.1327
G01 X30.7342 Y5.1655
G01 X30.7632 Y5.1805
G01 X30.7811 Y5.1906
G01 X30.8449 Y5.2289
G01 X30.8648 Y5.2415
G01 X30.8916 Y5.2601
G01 X30.9519 Y5.3048
G01 X30.9676 Y5.3170
G01 X30.9931 Y5.3385
G01 X31.0499 Y5.3899
G01 X31.0669 Y5.4061
G01 X31.0896 Y5.4296
G01 X31.1439 Y5.4896
G01 X31.1612 Y5.5101
G01 X31.1717 Y5.5234
G01 X31.2208 Y5.5896
G01 X31.2385 Y5.6152
G01 X31.2511 Y5.6351
G01 X31.2967 Y5.7116
G01 X31.3132 Y5.7431
G01 X31.3476 Y5.8156
G01 X31.3565 Y5.8358
G01 X31.3670 Y5.8620
G01 X31.3946 Y5.9390
G01 X31.4041 Y5.9686
G01 X31.4102 Y5.9906
G01 X31.4296 Y6.0685
G01 X31.4353 Y6.0954
G01 X31.4384 Y6.1127
G01 X31.4503 Y6.1921
G01 X31.4527 Y6.2118
G01 X31.4557 Y6.2473
G01 X31.4594 Y6.3223
G01 X31.4599 Y6.3421
G01 X31.4594 Y6.3777
G01 X31.4557 Y6.4527
G01 X31.4541 Y6.4747
G01 X31.4503 Y6.5079
G01 X31.4392 Y6.5822
G01 X31.4359 Y6.6018
G01 X31.4284 Y6.6365
G01 X31.4102 Y6.7094
G01 X31.4043 Y6.7307
G01 X31.3941 Y6.7624
G01 X31.3688 Y6.8331
G01 X31.3608 Y6.8537
G01 X31.3476 Y6.8844
G01 X31.3155 Y6.9522
G01 X31.3055 Y6.9720
G01 X31.2893 Y7.0011
G01 X31.2507 Y7.0655
G01 X31.2401 Y7.0823
G01 X31.2199 Y7.1116
G01 X31.1752 Y7.1719
G01 X31.1616 Y7.1893
G01 X31.1400 Y7.2148
G01 X31.0896 Y7.2704
G01 X31.0744 Y7.2864
G01 X31.0504 Y7.3096
G01 X30.9948 Y7.3600
G01 X30.9781 Y7.3745
G01 X30.9519 Y7.3952
G01 X30.8916 Y7.4399
G01 X30.8736 Y7.4527
G01 X30.8455 Y7.4708
G01 X30.7811 Y7.5094
G01 X30.7619 Y7.5202
G01 X30.7322 Y7.5355
G01 X30.6643 Y7.5676
G01 X30.6441 Y7.5765
G01 X30.6131 Y7.5888
G01 X30.5424 Y7.6141
G01 X30.5214 Y7.6210
G01 X30.4894 Y7.6302
G01 X30.4165 Y7.6484
G01 X30.3943 Y7.6534
G01 X30.3643 Y7.6589
G01 X30.2864 Y7.6705
G01 X30.2652 Y7.6731
G01 X30.2349 Y7.6756
G01 X30.1577 Y7.6794
G01 X30.1349 Y7.6799
G01 X30.1045 Y7.6795
G01 X30.0258 Y7.6756
G01 X30.0045 Y7.6740
G01 X29.9772 Y7.6710
G01 X29.8978 Y7.6593
G01 X29.8753 Y7.6553
G01 X29.8456 Y7.6490
G01 X29.7692 Y7.6298
G01 X29.7493 Y7.6243
G01 X29.7231 Y7.6160
G01 X29.6469 Y7.5888
G01 X29.6256 Y7.5806
G01 X29.5976 Y7.5685
G01 X29.5278 Y7.5355
G01 X29.5080 Y7.5256
G01 X29.4833 Y7.5120
G01 X29.4145 Y7.4708
G01 X29.3970 Y7.4597
G01 X29.3701 Y7.4413
G01 X29.3069 Y7.3943
G01 X29.2906 Y7.3816
G01 X29.2696 Y7.3640
G01 X29.2096 Y7.3096
G01 X29.1936 Y7.2944
G01 X29.1719 Y7.2720
G01 X29.1300 Y7.2259
G01 X29.0881 Y7.2720
G01 X29.0664 Y7.2944
G01 X29.0504 Y7.3096
G01 X28.9948 Y7.3600
G01 X28.9781 Y7.3745
G01 X28.9578 Y7.3908
G01 X28.8916 Y7.4399
G01 X28.8736 Y7.4527
G01 X28.8505 Y7.4677
G01 X28.7683 Y7.5167
G01 X28.7369 Y7.5332
G01 X28.6623 Y7.5685
G01 X28.6435 Y7.5768
G01 X28.6180 Y7.5870
G01 X28.5431 Y7.6139
G01 X28.5264 Y7.6195
G01 X28.5085 Y7.6249
G01 X28.4908 Y7.6298
G01 X28.4165 Y7.6484
G01 X28.4000 Y7.6522
G01 X28.3817 Y7.6559
G01 X28.3636 Y7.6590
G01 X28.2879 Y7.6703
G01 X28.2674 Y7.6728
G01 X28.2342 Y7.6756
G01 X28.1437 Y7.6798
G01 X28.1221 Y7.6799
G01 X28.1037 Y7.6795
G01 X28.0273 Y7.6757
G01 X28.0053 Y7.6741
G01 X27.9714 Y7.6702
G01 X27.8956 Y7.6589
G01 X27.8657 Y7.6534
G01 X27.8434 Y7.6484
G01 X27.7706 Y7.6302
G01 X27.7364 Y7.6204
G01 X27.7176 Y7.6141
G01 X27.6448 Y7.5881
G01 X27.6263 Y7.5809
G01 X27.6023 Y7.5707
G01 X27.5258 Y7.5345
G01 X27.4929 Y7.5174
G01 X27.4782 Y7.5090
G01 X27.4095 Y7.4677
G01 X27.3864 Y7.4527
G01 X27.3696 Y7.4408
G01 X27.3022 Y7.3908
G01 X27.2819 Y7.3745
G01 X27.2652 Y7.3600
G01 X27.2096 Y7.3096
G01 X27.1936 Y7.2944
G01 X27.1719 Y7.2720
G01 X27.1300 Y7.2259
G01 X27.0881 Y7.2720
G01 X27.0664 Y7.2944
G01 X27.0504 Y7.3096
G01 X26.9948 Y7.3600
G01 X26.9781 Y7.3745
G01 X26.9578 Y7.3908
G01 X26.8916 Y7.4399
G01 X26.8736 Y7.4527
G01 X26.8505 Y7.4677
G01 X26.7684 Y7.5167
G01 X26.7369 Y7.5332
G01 X26.6643 Y7.5676
G01 X26.6442 Y7.5765
G01 X26.6186 Y7.5868
G01 X26.5431 Y7.6139
G01 X26.5271 Y7.6193
G01 X26.5085 Y7.6249
G01 X26.4908 Y7.6298
G01 X26.4022 Y7.6518
G01 X26.3817 Y7.6559
G01 X26.3636 Y7.6590
G01 X26.2879 Y7.6703
G01 X26.2711 Y7.6724
G01 X26.2379 Y7.6754
G01 X26.1585 Y7.6794
G01 X26.1356 Y7.6799
G01 X26.1082 Y7.6796
G01 X26.0280 Y7.6757
G01 X26.0111 Y7.6746
G01 X25.9918 Y7.6727
G01 X25.9736 Y7.6705
G01 X25.8978 Y7.6593
G01 X25.8819 Y7.6566
G01 X25.8628 Y7.6528
G01 X25.8449 Y7.6488
G01 X25.7706 Y7.6302
G01 X25.7515 Y7.6249
G01 X25.7196 Y7.6148
G01 X25.6393 Y7.5860
G01 X25.6158 Y7.5765
G01 X25.5976 Y7.5685
G01 X25.5278 Y7.5355
G01 X25.5126 Y7.5279
G01 X25.4962 Y7.5192
G01 X25.4801 Y7.5101
G01 X25.4020 Y7.4630
G01 X25.3846 Y7.4514
G01 X25.3702 Y7.4413
G01 X25.3081 Y7.3952
G01 X25.2952 Y7.3853
G01 X25.2691 Y7.3635
G01 X25.2183 Y7.3175
G01 X25.2182 Y8.3894
G01 X25.2176 Y8.4090
G01 X25.2151 Y8.4603
G01 X25.2136 Y8.4816
G01 X25.2103 Y8.5111
G01 X25.2022 Y8.5663
G01 X25.1983 Y8.5887
G01 X25.1925 Y8.6164
G01 X25.1783 Y8.6733
G01 X25.1699 Y8.7026
G01 X25.1632 Y8.7229
G01 X25.1434 Y8.7781
G01 X25.1331 Y8.8036
G01 X25.1239 Y8.8245
G01 X25.1000 Y8.8749
G01 X25.0870 Y8.8999
G01 X25.0761 Y8.9191
G01 X25.0423 Y8.9750
G01 X25.0224 Y9.0045
G01 X24.9874 Y9.0517
G01 X24.9742 Y9.0685
G01 X24.9546 Y9.0917
G01 X24.9169 Y9.1333
G01 X24.8995 Y9.1515
G01 X13.8513 Y20.1998
G01 X13.8312 Y20.2189
G01 X13.7923 Y20.2541
G01 X13.7784 Y20.2661
G01 X13.7547 Y20.2852
G01 X13.7099 Y20.3184
G01 X13.6912 Y20.3316
G01 X13.6676 Y20.3470
G01 X13.6172 Y20.3772
G01 X13.5906 Y20.3919
G01 X13.5716 Y20.4016
G01 X13.5225 Y20.4248
G01 X13.5057 Y20.4323
G01 X13.4877 Y20.4396
G01 X13.4719 Y20.4456
G01 X13.4173 Y20.4651
G01 X13.3911 Y20.4733
G01 X13.3705 Y20.4790
G01 X13.3164 Y20.4925
G01 X13.2895 Y20.4982
G01 X13.2685 Y20.5019
G01 X13.2148 Y20.5098
G01 X13.1943 Y20.5123
G01 X13.1669 Y20.5147
G01 X13.1094 Y20.5176
G01 X13.0894 Y20.5182
G01 X4.0845 Y20.5182
G01 X4.0769 Y20.5368
G01 X4.0704 Y20.5516
G01 X4.0609 Y20.5710
G01 X4.0520 Y20.5879
G01 X4.0440 Y20.6020
G01 X4.0327 Y20.6204
G01 X4.0221 Y20.6363
G01 X4.0127 Y20.6496
G01 X3.9997 Y20.6668
G01 X3.9876 Y20.6816
G01 X3.9770 Y20.6938
G01 X3.9624 Y20.7097
G01 X3.9489 Y20.7233
G01 X3.9371 Y20.7344
G01 X3.9210 Y20.7488
G01 X3.9039 Y20.7628
G01 X3.8760 Y20.7836
G01 X3.8601 Y20.7943
G01 X3.8464 Y20.8029
G01 X3.8278 Y20.8138
G01 X3.8109 Y20.8229
G01 X3.7964 Y20.8302
G01 X3.7755 Y20.8398
G01 X3.7440 Y20.8524
G01 X3.7236 Y20.8595
G01 X3.7025 Y20.8659
G01 X3.6802 Y20.8718
G01 X3.6673 Y20.8747
G01 X3.6471 Y20.8787
G01 X3.6287 Y20.8817
G01 X14.4092 Y20.8817
G01 X21.5503 Y13.7407
G01 X21.5547 Y13.7154
G01 X21.5617 Y13.6827
G01 X21.5817 Y13.6035
G01 X21.5894 Y13.5771
G01 X21.5961 Y13.5569
G01 X21.6230 Y13.4820
G01 X21.6364 Y13.4491
G01 X21.6771 Y13.3625
G01 X21.6894 Y13.3387
G01 X21.6995 Y13.3208
G01 X21.7404 Y13.2526
G01 X21.7586 Y13.2246
G01 X21.7701 Y13.2084
G01 X21.8148 Y13.1481
G01 X21.8369 Y13.1202
G01 X21.8500 Y13.1052
G01 X21.9004 Y13.0496
G01 X21.9236 Y13.0256
G01 X21.9396 Y13.0104
G01 X21.9952 Y12.9600
G01 X22.0207 Y12.9384
G01 X22.0381 Y12.9248
G01 X22.1025 Y12.8770
G01 X22.1252 Y12.8615
G01 X22.1432 Y12.8500
G01 X22.2089 Y12.8106
G01 X22.2287 Y12.7994
G01 X22.2558 Y12.7855
G01 X22.3256 Y12.7524
G01 X22.3458 Y12.7435
G01 X22.3720 Y12.7330
G01 X22.4476 Y12.7059
G01 X22.4664 Y12.6996
G01 X22.4850 Y12.6940
G01 X22.5013 Y12.6896
G01 X22.5756 Y12.6710
G01 X22.6054 Y12.6647
G01 X22.6278 Y12.6607
G01 X22.7072 Y12.6490
G01 X22.7345 Y12.6460
G01 X22.7558 Y12.6444
G01 X22.8323 Y12.6406
G01 X22.8551 Y12.6401
G01 X22.8855 Y12.6405
G01 X22.9620 Y12.6443
G01 X22.9847 Y12.6459
G01 X23.0121 Y12.6489
G01 X23.0914 Y12.6606
G01 X23.1089 Y12.6636
G01 X23.1300 Y12.6678
G01 X23.1465 Y12.6716
G01 X23.2194 Y12.6898
G01 X23.2414 Y12.6959
G01 X23.2703 Y12.7052
G01 X23.3424 Y12.7309
G01 X23.3583 Y12.7369
G01 X23.3762 Y12.7443
G01 X23.3944 Y12.7524
G01 X23.4669 Y12.7868
G01 X23.4919 Y12.7998
G01 X23.5111 Y12.8106
G01 X23.5774 Y12.8504
G01 X23.6030 Y12.8669
G01 X23.6216 Y12.8801
G01 X23.6831 Y12.9257
G01 X23.6999 Y12.9388
G01 X23.7209 Y12.9565
G01 X23.7804 Y13.0104
G01 X23.7964 Y13.0256
G01 X23.8181 Y13.0480
G01 X23.8696 Y13.1047
G01 X23.8926 Y13.1318
G01 X23.9052 Y13.1481
G01 X23.9530 Y13.2125
G01 X23.9689 Y13.2358
G01 X23.9808 Y13.2545
G01 X24.0205 Y13.3208
G01 X24.0352 Y13.3474
G01 X24.0455 Y13.3678
G01 X24.0782 Y13.4370
G01 X24.0868 Y13.4565
G01 X24.0970 Y13.4820
G01 X24.1241 Y13.5576
G01 X24.1300 Y13.5752
G01 X24.1359 Y13.5576
G01 X24.1632 Y13.4814
G01 X24.1735 Y13.4558
G01 X24.1824 Y13.4356
G01 X24.2155 Y13.3658
G01 X24.2294 Y13.3387
G01 X24.2406 Y13.3189
G01 X24.2819 Y13.2501
G01 X24.2969 Y13.2270
G01 X24.3092 Y13.2096
G01 X24.3561 Y13.1463
G01 X24.3751 Y13.1225
G01 X24.3900 Y13.1052
G01 X24.4439 Y13.0458
G01 X24.4636 Y13.0256
G01 X24.4801 Y13.0099
G01 X24.5369 Y12.9585
G01 X24.5624 Y12.9370
G01 X24.5781 Y12.9248
G01 X24.6384 Y12.8801
G01 X24.6670 Y12.8603
G01 X24.6845 Y12.8492
G01 X24.7489 Y12.8106
G01 X24.7774 Y12.7948
G01 X24.7984 Y12.7842
G01 X24.8656 Y12.7524
G01 X24.8865 Y12.7432
G01 X24.9169 Y12.7312
G01 X24.9876 Y12.7059
G01 X25.0085 Y12.6990
G01 X25.0406 Y12.6898
G01 X25.1135 Y12.6716
G01 X25.1300 Y12.6678
G01 X25.1482 Y12.6641
G01 X25.1664 Y12.6610
G01 X25.2421 Y12.6497
G01 X25.2589 Y12.6476
G01 X25.2921 Y12.6446
G01 X25.3700 Y12.6407
G01 X29.8003 Y8.2103
G01 X29.8123 Y8.1987
G01 X29.8492 Y8.1651
G01 X29.8665 Y8.1502
G01 X29.8880 Y8.1330
G01 X29.9281 Y8.1033
G01 X29.9508 Y8.0878
G01 X29.9694 Y8.0760
G01 X30.0091 Y8.0523
G01 X30.0385 Y8.0364
G01 X30.0868 Y8.0132
G01 X30.1070 Y8.0043
G01 X30.1332 Y7.9938
G01 X30.1802 Y7.9770
G01 X30.2142 Y7.9664
G01 X30.2647 Y7.9535
G01 X30.2870 Y7.9485
G01 X30.3140 Y7.9435
G01 X30.3634 Y7.9361
G01 X30.3936 Y7.9328
G01 X30.4120 Y7.9315
G01 X30.4519 Y7.9295
G01 X30.4800 Y7.9288
G01 X81.5340 Y7.9288
G01 X81.5591 Y7.9294
G01 X81.6064 Y7.9317
G01 X81.6338 Y7.9341
G01 X81.6557 Y7.9368
G01 X81.7000 Y7.9435
G01 X81.7292 Y7.9489
G01 X81.7493 Y7.9535
G01 X81.7877 Y7.9632
G01 X81.8055 Y7.9681
G01 X81.8240 Y7.9737
G01 X81.8400 Y7.9791
G01 X81.8815 Y7.9940
G01 X81.9084 Y8.0048
G01 X81.9259 Y8.0126
G01 X81.9676 Y8.0324
G01 X81.9914 Y8.0447
G01 X82.0068 Y8.0534
G01 X82.0458 Y8.0767
G01 X82.0639 Y8.0882
G01 X82.0865 Y8.1037
G01 X82.1213 Y8.1295
G01 X82.1376 Y8.1421
G01 X82.1542 Y8.1559
G01 X82.2009 Y8.1980
G01 X82.2137 Y8.2103
G01 X84.7537 Y10.7503
G01 X84.7711 Y10.7685
G01 X84.8023 Y10.8031
G01 X84.8138 Y10.8165
G01 X84.8310 Y10.8380
G01 X84.8581 Y10.8745
G01 X84.8704 Y10.8920
G01 X84.8854 Y10.9150
G01 X84.9088 Y10.9540
G01 X84.9189 Y10.9720
G01 X84.9309 Y10.9950
G01 X84.9508 Y11.0368
G01 X84.9592 Y11.0556
G01 X84.9700 Y11.0825
G01 X84.9849 Y11.1240
G01 X84.9905 Y11.1407
G01 X84.9970 Y11.1621
G01 X85.0105 Y11.2147
G01 X85.0152 Y11.2355
G01 X85.0205 Y11.2640
G01 X85.0272 Y11.3083
G01 X85.0299 Y11.3302
G01 X85.0323 Y11.3576
G01 X85.0346 Y11.4049
G01 X85.0352 Y11.4300
G01 X85.0351 Y13.7037
G01 X85.0345 Y13.7233
G01 X85.0320 Y13.7723
G01 X85.0303 Y13.7931
G01 X85.0273 Y13.8169
G01 X85.0210 Y13.8593
G01 X85.0167 Y13.8838
G01 X85.0113 Y13.9080
G01 X84.9993 Y13.9556
G01 X84.9938 Y13.9749
G01 X84.9874 Y13.9947
G01 X84.9713 Y14.0399
G01 X84.9637 Y14.0596
G01 X84.9506 Y14.0895
G01 X84.9328 Y14.1272
G01 X84.9219 Y14.1487
G01 X84.9099 Y14.1700
G01 X84.8883 Y14.2061
G01 X84.8709 Y14.2333
G01 X84.8586 Y14.2508
G01 X84.8319 Y14.2867
G01 X84.8180 Y14.3045
G01 X84.8060 Y14.3187
G01 X84.7714 Y14.3571
G01 X84.7540 Y14.3753
G01 X83.8694 Y15.2600
G01 X83.8657 Y15.3350
G01 X83.8629 Y15.3675
G01 X83.8604 Y15.3880
G01 X83.8495 Y15.4615
G01 X83.8454 Y15.4847
G01 X83.8385 Y15.5166
G01 X83.8203 Y15.5895
G01 X83.8158 Y15.6058
G01 X83.8059 Y15.6377
G01 X83.7820 Y15.7045
G01 X83.8027 Y15.7103
G01 X83.8275 Y15.7181
G01 X83.8607 Y15.7299
G01 X83.8799 Y15.7373
G01 X83.9052 Y15.7481
G01 X83.9364 Y15.7628
G01 X83.9548 Y15.7722
G01 X83.9783 Y15.7850
G01 X84.0079 Y15.8028
G01 X84.0253 Y15.8138
G01 X84.0473 Y15.8289
G01 X84.0751 Y15.8495
G01 X84.0913 Y15.8622
G01 X84.1118 Y15.8794
G01 X84.1382 Y15.9033
G01 X84.1548 Y15.9191
G01 X85.9338 Y17.6982
G01 X85.9477 Y17.7126
G01 X85.9804 Y17.7489
G01 X85.9937 Y17.7650
G01 X86.0059 Y17.7807
G01 X86.0229 Y17.8037
G01 X86.0347 Y17.8206
G01 X86.0493 Y17.8430
G01 X86.0660 Y17.8707
G01 X86.0758 Y17.8879
G01 X86.0859 Y17.9070
G01 X86.0924 Y17.9202
G01 X86.1092 Y17.9562
G01 X86.1228 Y17.9898
G01 X86.1389 Y18.0356
G01 X86.1477 Y18.0655
G01 X86.1566 Y18.1004
G01 X86.1629 Y18.1301
G01 X86.1666 Y18.1511
G01 X86.1717 Y18.1860
G01 X86.1750 Y18.2170
G01 X86.1775 Y18.2606
G01 X86.1781 Y18.2851
G01 X86.1781 Y23.1140
G01 X86.1776 Y23.1380
G01 X86.1759 Y23.1732
G01 X86.1745 Y23.1909
G01 X86.1717 Y23.2160
G01 X86.1659 Y23.2552
G01 X86.1606 Y23.2837
G01 X86.1566 Y23.3016
G01 X86.1498 Y23.3287
G01 X86.1435 Y23.3514
G01 X86.1343 Y23.3804
G01 X86.1189 Y23.4225
G01 X86.1065 Y23.4519
G01 X86.0912 Y23.4844
G01 X86.0772 Y23.5115
G01 X86.0656 Y23.5320
G01 X86.0446 Y23.5665
G01 X86.0251 Y23.5953
G01 X86.0023 Y23.6260
G01 X85.9837 Y23.6491
G01 X85.9722 Y23.6625
G01 X85.9527 Y23.6840
G01 X85.9341 Y23.7036
G01 X79.3238 Y30.3137
G01 X79.2907 Y30.3442
G01 X79.2746 Y30.3582
G01 X79.2520 Y30.3763
G01 X79.2243 Y30.3969
G01 X79.1993 Y30.4142
G01 X79.1813 Y30.4256
G01 X79.1510 Y30.4437
G01 X79.1229 Y30.4589
G01 X79.0846 Y30.4774
G01 X79.0644 Y30.4864
G01 X79.0382 Y30.4968
G01 X79.0015 Y30.5099
G01 X78.9696 Y30.5198
G01 X78.9305 Y30.5299
G01 X78.9082 Y30.5349
G01 X78.8812 Y30.5399
G01 X78.8434 Y30.5455
G01 X78.8139 Y30.5487
G01 X78.7963 Y30.5500
G01 X78.7674 Y30.5515
G01 X78.7400 Y30.5521
G01 X40.7680 Y30.5521
G01 X40.7399 Y30.5514
G01 X40.7117 Y30.5500
G01 X40.6919 Y30.5485
G01 X40.6609 Y30.5450
G01 X40.6159 Y30.5380
G01 X40.5854 Y30.5317
G01 X40.5505 Y30.5231
G01 X40.5212 Y30.5147
G01 X40.5016 Y30.5083
G01 X40.4678 Y30.4961
G01 X40.4416 Y30.4855
G01 X40.4255 Y30.4783
G01 X40.4002 Y30.4664
G01 X40.3818 Y30.4572
G01 X40.3570 Y30.4437
G01 X40.3261 Y30.4252
G01 X40.3006 Y30.4087
G01 X40.2831 Y30.3965
G01 X40.2548 Y30.3754
G01 X40.2329 Y30.3577
G01 X40.2195 Y30.3462
G01 X40.1988 Y30.3274
G01 X40.1813 Y30.3109
G01 X31.7721 Y21.9017
G01 X31.7587 Y21.9551
G01 X31.7488 Y21.9885
G01 X31.7183 Y22.0745
G01 X31.7060 Y22.1055
G01 X31.6973 Y22.1250
G01 X31.6655 Y22.1922
G01 X31.6562 Y22.2106
G01 X31.6405 Y22.2392
G01 X31.6000 Y22.3068
G01 X31.5831 Y22.3330
G01 X31.5695 Y22.3522
G01 X31.5217 Y22.4166
G01 X31.5112 Y22.4299
G01 X31.4949 Y22.4493
G01 X31.4396 Y22.5104
G01 X31.4239 Y22.5269
G01 X31.4020 Y22.5481
G01 X31.3453 Y22.5996
G01 X31.3275 Y22.6149
G01 X31.3019 Y22.6352
G01 X31.2369 Y22.6834
G01 X31.2230 Y22.6931
G01 X31.2018 Y22.7069
G01 X31.1311 Y22.7494
G01 X31.1113 Y22.7606
G01 X31.0842 Y22.7745
G01 X31.0150 Y22.8073
G01 X30.9935 Y22.8168
G01 X30.9652 Y22.8281
G01 X30.8903 Y22.8548
G01 X30.8614 Y22.8641
G01 X30.8394 Y22.8702
G01 X30.7608 Y22.8898
G01 X30.7325 Y22.8958
G01 X30.7093 Y22.8997
G01 X28.3293 Y25.2798
G01 X28.3114 Y25.2969
G01 X28.2714 Y25.3331
G01 X28.2465 Y25.3542
G01 X28.2297 Y25.3674
G01 X28.1825 Y25.4023
G01 X28.1599 Y25.4179
G01 X28.1406 Y25.4301
G01 X28.0927 Y25.4587
G01 X28.0667 Y25.4730
G01 X28.0496 Y25.4816
G01 X28.0025 Y25.5039
G01 X27.9830 Y25.5126
G01 X27.9554 Y25.5236
G01 X27.9009 Y25.5432
G01 X27.8806 Y25.5498
G01 X27.8542 Y25.5575
G01 X27.7972 Y25.5718
G01 X27.7675 Y25.5782
G01 X27.7465 Y25.5819
G01 X27.6884 Y25.5904
G01 X27.6618 Y25.5934
G01 X27.6412 Y25.5949
G01 X27.5852 Y25.5977
G01 X27.5600 Y25.5982
G01 X3.8823 Y25.5982
G01 X3.8823 Y26.8930
G01 X3.9062 Y26.9437
G01 X3.9183 Y26.9716
G01 X3.9260 Y26.9915
G01 X3.9480 Y27.0530
G01 X3.9545 Y27.0725
G01 X3.9620 Y27.0982
G01 X3.9801 Y27.1701
G01 X3.9846 Y27.1902
G01 X3.9895 Y27.2165
G01 X3.9997 Y27.2847
G01 X4.0018 Y27.3015
G01 X4.0051 Y27.3384
G01 X4.0083 Y27.4043
G01 X4.0088 Y27.4205
G01 X4.0089 Y27.4399
G01 X4.0084 Y27.4583
G01 X4.0052 Y27.5234
G01 X4.0037 Y27.5440
G01 X3.9998 Y27.5786
G01 X3.9904 Y27.6417
G01 X3.9869 Y27.6620
G01 X3.9796 Y27.6961
G01 X3.9641 Y27.7580
G01 X3.9586 Y27.7778
G01 X3.9485 Y27.8096
G01 X3.9265 Y27.8711
G01 X3.9194 Y27.8897
G01 X3.9059 Y27.9210
G01 X3.8780 Y27.9800
G01 X3.8705 Y27.9951
G01 X3.8545 Y28.0244
G01 X3.8183 Y28.0849
G01 X3.8014 Y28.1110
G01 X3.7878 Y28.1303
G01 X3.7458 Y28.1868
G01 X3.7300 Y28.2065
G01 X3.7185 Y28.2199
G01 X3.6708 Y28.2727
G01 X3.6480 Y28.2961
G01 X3.6331 Y28.3103
G01 X3.5863 Y28.3526
G01 X3.5685 Y28.3680
G01 X3.5441 Y28.3874
G01 X3.4917 Y28.4263
G01 X3.4779 Y28.4361
G01 X3.4500 Y28.4544
G01 X3.3915 Y28.4895
G01 X3.3710 Y28.5011
G01 X3.3420 Y28.5160
G01 X3.2776 Y28.5464
G01 X3.2544 Y28.5563
G01 X3.2379 Y28.5627
G01 X3.1709 Y28.5867
G01 X3.1413 Y28.5962
G01 X3.1193 Y28.6023
G01 X3.0581 Y28.6176
G01 X3.0380 Y28.6221
G01 X3.0052 Y28.6282
G01 X2.9406 Y28.6378
G01 X2.9238 Y28.6399
G01 X2.8906 Y28.6429
G01 X2.8225 Y28.6463
G01 X2.7989 Y28.6469
G01 X2.7677 Y28.6464
G01 X2.6974 Y28.6429
G01 X2.6635 Y28.6398
G01 X2.6474 Y28.6378
G01 X2.5828 Y28.6282
G01 X2.5522 Y28.6226
G01 X2.5292 Y28.6174
G01 X2.4666 Y28.6017
G01 X2.4467 Y28.5962
G01 X2.4150 Y28.5860
G01 X2.3549 Y28.5645
G01 X2.3363 Y28.5574
G01 X2.3057 Y28.5442
G01 X2.2440 Y28.5151
G01 X2.2263 Y28.5061
G01 X2.2041 Y28.4939
G01 X2.1430 Y28.4575
G01 X2.1231 Y28.4449
G01 X2.0975 Y28.4271
G01 X2.0410 Y28.3852
G01 X2.0150 Y28.3642
G01 X2.0022 Y28.3531
G01 X1.9533 Y28.3088
G01 X1.9268 Y28.2828
G01 X1.9157 Y28.2711
G01 X1.8719 Y28.2227
G01 X1.8518 Y28.1989
G01 X1.8373 Y28.1803
G01 X1.7989 Y28.1285
G01 X1.7870 Y28.1116
G01 X1.7689 Y28.0836
G01 X1.7361 Y28.0289
G01 X1.7263 Y28.0116
G01 X1.7109 Y27.9820
G01 X1.6803 Y27.9170
G01 X1.6697 Y27.8924
G01 X1.6633 Y27.8759
G01 X1.6353 Y27.7971
G01 X1.6252 Y27.7630
G01 X1.6086 Y27.6968
G01 X1.6039 Y27.6760
G01 X1.5989 Y27.6497
G01 X1.5883 Y27.5793
G01 X1.5855 Y27.5560
G01 X1.5828 Y27.5227
G01 X1.5796 Y27.4575
G01 X1.5791 Y27.4271
G01 X1.5796 Y27.4057
G01 X1.5829 Y27.3391
G01 X1.5845 Y27.3178
G01 X1.5875 Y27.2905
G01 X1.5976 Y27.2223
G01 X1.6014 Y27.2005
G01 X1.6079 Y27.1701
G01 X1.6243 Y27.1046
G01 X1.6298 Y27.0847
G01 X1.6381 Y27.0585
G01 X1.6615 Y26.9929
G01 X1.6694 Y26.9723
G01 X1.6806 Y26.9464
G01 X1.7054 Y26.8937
G01 X1.7057 Y25.4019
G01 X1.6922 Y25.3828
G01 X1.6763 Y25.3585
G01 X1.6350 Y25.2898
G01 X1.6266 Y25.2751
G01 X1.6174 Y25.2580
G01 X1.6091 Y25.2415
G01 X1.5764 Y25.1724
G01 X1.5698 Y25.1576
G01 X1.5623 Y25.1397
G01 X1.5557 Y25.1225
G01 X1.5299 Y25.0504
G01 X1.5234 Y25.0309
G01 X1.5142 Y24.9988
G01 X1.4956 Y24.9245
G01 X1.4918 Y24.9080
G01 X1.4881 Y24.8898
G01 X1.4850 Y24.8716
G01 X1.4737 Y24.7959
G01 X1.4712 Y24.7754
G01 X1.4683 Y24.7407
G01 X1.4646 Y24.6657
G01 X1.4641 Y24.6436
G01 X1.4646 Y24.6103
G01 X1.4683 Y24.5353
G01 X1.4699 Y24.5133
G01 X1.4737 Y24.4801
G01 X1.4847 Y24.4058
G01 X1.4887 Y24.3834
G01 X1.4950 Y24.3536
G01 X1.5142 Y24.2772
G01 X1.5199 Y24.2566
G01 X1.5292 Y24.2277
G01 X1.5552 Y24.1549
G01 X1.5634 Y24.1336
G01 X1.5755 Y24.1057
G01 X1.6091 Y24.0345
G01 X1.6188 Y24.0154
G01 X1.6335 Y23.9888
G01 X1.6744 Y23.9206
G01 X1.6909 Y23.8950
G01 X1.7041 Y23.8764
G01 X1.7519 Y23.8120
G01 X1.7695 Y23.7899
G01 X1.7840 Y23.7732
G01 X1.8359 Y23.7160
G01 X1.8571 Y23.6941
G01 X1.8736 Y23.6784
G01 X1.9331 Y23.6245
G01 X1.9541 Y23.6068
G01 X1.9709 Y23.5937
G01 X2.0342 Y23.5467
G01 X2.0610 Y23.5283
G01 X2.0785 Y23.5172
G01 X2.1473 Y23.4760
G01 X2.1720 Y23.4624
G01 X2.1924 Y23.4522
G01 X2.2617 Y23.4195
G01 X2.2903 Y23.4071
G01 X2.3116 Y23.3989
G01 X2.3816 Y23.3739
G01 X2.3992 Y23.3680
G01 X2.3816 Y23.3621
G01 X2.3095 Y23.3363
G01 X2.2778 Y23.3237
G01 X2.2596 Y23.3156
G01 X2.1898 Y23.2825
G01 X2.1720 Y23.2736
G01 X2.1492 Y23.2611
G01 X2.0735 Y23.2157
G01 X2.0504 Y23.2007
G01 X2.0336 Y23.1888
G01 X1.9721 Y23.1432
G01 X1.9547 Y23.1296
G01 X1.9309 Y23.1095
G01 X1.8859 Y23.0688
G01 X1.8266 Y23.0476
G01 X1.7956 Y23.0351
G01 X1.7802 Y23.0282
G01 X1.7318 Y23.0053
G01 X1.6996 Y22.9885
G01 X1.6849 Y22.9801
G01 X1.6396 Y22.9529
G01 X1.6109 Y22.9344
G01 X1.5947 Y22.9229
G01 X1.5523 Y22.8914
G01 X1.5378 Y22.8801
G01 X1.5234 Y22.8682
G01 X1.5106 Y22.8571
G01 X1.4723 Y22.8224
G01 X1.4527 Y22.8038
G01 X0.2455 Y21.5965
G01 X0.2271 Y21.5772
G01 X0.1919 Y21.5383
G01 X0.1799 Y21.5244
G01 X0.1608 Y21.5006
G01 X0.1282 Y21.4568
G01 X0.6900 Y29.7997
G01 X0.6900 Y28.7634
G01 X0.6912 Y28.7299
G01 X0.6937 Y28.7017
G01 X0.6975 Y28.6741
G01 X0.7027 Y28.6462
G01 X0.7102 Y28.6150
G01 X0.7195 Y28.5838
G01 X0.7269 Y28.5629
G01 X0.7331 Y28.5470
G01 X0.7455 Y28.5189
G01 X0.7616 Y28.4874
G01 X0.7770 Y28.4609
G01 X0.7933 Y28.4360
G01 X0.8055 Y28.4191
G01 X0.8159 Y28.4057
G01 X0.8365 Y28.3811
G01 X0.8598 Y28.3563
G01 X0.8800 Y28.3371
G01 X0.9047 Y28.3159
G01 X0.9211 Y28.3031
G01 X0.9348 Y28.2930
G01 X0.9603 Y28.2760
G01 X0.9908 Y28.2580
G01 X1.0194 Y28.2433
G01 X1.0439 Y28.2322
G01 X1.0698 Y28.2219
G01 X1.1948 Y28.1773
G01 X1.2093 Y28.1724
G01 X1.2338 Y28.1650
G01 X1.2590 Y28.1586
G01 X1.2856 Y28.1531
G01 X1.3037 Y28.1501
G01 X1.3219 Y28.1477
G01 X1.3443 Y28.1455
G01 X1.3749 Y28.1439
G01 X1.4051 Y28.1439
G01 X1.4342 Y28.1454
G01 X1.4672 Y28.1489
G01 X1.4975 Y28.1538
G01 X1.5255 Y28.1598
G01 X1.5551 Y28.1678
G01 X1.5823 Y28.1766
G01 X1.6066 Y28.1859
G01 X1.6236 Y28.1930
G01 X1.6481 Y28.2045
G01 X1.6712 Y28.2166
G01 X1.6906 Y28.2279
G01 X1.7151 Y28.2437
G01 X1.7360 Y28.2585
G01 X1.7493 Y28.2688
G01 X1.7683 Y28.2844
G01 X1.7816 Y28.2962
G01 X1.7939 Y28.3078
G01 X1.8111 Y28.3253
G01 X1.8237 Y28.3391
G01 X1.8362 Y28.3536
G01 X1.8527 Y28.3735
G01 X2.0543 Y28.5390
G01 X2.2844 Y28.6621
G01 X2.5342 Y28.7377
G01 X2.7940 Y28.7633
G01 X3.0538 Y28.7377
G01 X3.3036 Y28.6621
G01 X3.5337 Y28.5390
G01 X3.7355 Y28.3735
G01 X3.9010 Y28.1717
G01 X4.0242 Y27.9414
G01 X4.0999 Y27.6918
G01 X4.1254 Y27.4320
G01 X4.0999 Y27.1723
G01 X4.0257 Y26.9277
G01 X4.0199 Y26.9071
G01 X4.0134 Y26.8796
G01 X4.0080 Y26.8506
G01 X4.0043 Y26.8234
G01 X4.0017 Y26.7925
G01 X4.0006 Y26.7592
G01 X4.0006 Y26.2966
G01 X4.0009 Y26.2812
G01 X4.0026 Y26.2500
G01 X4.0063 Y26.2164
G01 X4.0097 Y26.1951
G01 X4.0131 Y26.1777
G01 X4.0204 Y26.1467
G01 X4.0275 Y26.1227
G01 X4.0325 Y26.1073
G01 X4.0405 Y26.0856
G01 X4.0472 Y26.0693
G01 X4.0611 Y26.0390
G01 X4.0720 Y26.0181
G01 X4.0800 Y26.0040
G01 X4.0920 Y25.9843
G01 X4.1026 Y25.9684
G01 X4.1120 Y25.9551
G01 X4.1250 Y25.9379
G01 X4.1371 Y25.9231
G01 X4.1477 Y25.9108
G01 X4.1623 Y25.8950
G01 X4.1779 Y25.8793
G01 X4.1949 Y25.8637
G01 X4.2071 Y25.8531
G01 X4.2219 Y25.8410
G01 X4.2391 Y25.8279
G01 X4.2524 Y25.8186
G01 X4.2683 Y25.8080
G01 X4.2867 Y25.7967
G01 X4.3008 Y25.7887
G01 X4.3177 Y25.7797
G01 X4.3385 Y25.7697
G01 X4.3533 Y25.7632
G01 X4.3751 Y25.7543
G01 X4.4067 Y25.7434
G01 X4.4293 Y25.7368
G01 X4.4488 Y25.7319
G01 X4.4791 Y25.7257
G01 X4.5136 Y25.7206
G01 X4.5458 Y25.7178
G01 X4.5806 Y25.7166
G01 X27.5315 Y25.7166
G01 X27.7947 Y25.6907
G01 X28.0206 Y25.6221
G01 X28.2290 Y25.5107
G01 X28.4335 Y25.3430
G01 X30.6668 Y23.1098
G01 X30.6922 Y23.0860
G01 X30.7182 Y23.0643
G01 X30.7449 Y23.0444
G01 X30.7695 Y23.0282
G01 X30.7944 Y23.0135
G01 X30.8244 Y22.9978
G01 X30.8440 Y22.9888
G01 X30.8603 Y22.9820
G01 X30.8923 Y22.9701
G01 X30.9084 Y22.9649
G01 X31.0336 Y22.9269
G01 X31.2840 Y22.7930
G01 X31.5441 Y22.5795
G01 X31.5563 Y22.5699
G01 X31.5754 Y22.5557
G01 X31.5998 Y22.5393
G01 X31.6233 Y22.5250
G01 X31.6479 Y22.5117
G01 X31.6793 Y22.4967
G01 X31.7107 Y22.4841
G01 X31.7325 Y22.4765
G01 X31.7494 Y22.4713
G01 X31.7802 Y22.4632
G01 X31.8163 Y22.4559
G01 X31.8479 Y22.4516
G01 X31.8670 Y22.4497
G01 X31.8885 Y22.4485
G01 X31.9194 Y22.4481
G01 X31.9498 Y22.4492
G01 X31.9762 Y22.4516
G01 X32.0035 Y22.4552
G01 X32.0310 Y22.4603
G01 X32.0577 Y22.4666
G01 X32.0748 Y22.4713
G01 X32.1014 Y22.4798
G01 X32.1272 Y22.4894
G01 X32.1515 Y22.4997
G01 X32.1763 Y22.5117
G01 X32.2009 Y22.5250
G01 X32.2244 Y22.5393
G01 X32.2488 Y22.5558
G01 X32.2708 Y22.5722
G01 X32.2934 Y22.5910
G01 X32.3116 Y22.6075
G01 X32.3222 Y22.6178
G01 X40.0753 Y30.3706
G01 X40.2409 Y30.5067
G01 X40.4049 Y30.5943
G01 X40.5830 Y30.6483
G01 X40.7966 Y30.6694
G01 X78.7115 Y30.6694
G01 X78.9250 Y30.6483
G01 X79.1031 Y30.5943
G01 X79.2671 Y30.5067
G01 X79.4327 Y30.3706
G01 X85.9966 Y23.8067
G01 X86.1327 Y23.6411
G01 X86.2203 Y23.4771
G01 X86.2743 Y23.2990
G01 X86.2954 Y23.0855
G01 X86.2954 Y18.3165
G01 X86.2743 Y18.1030
G01 X86.2203 Y17.9249
G01 X86.1327 Y17.7609
G01 X85.9966 Y17.5953
G01 X84.2587 Y15.8574
G01 X84.2425 Y15.8403
G01 X84.2272 Y15.8231
G01 X84.2096 Y15.8013
G01 X84.1967 Y15.7840
G01 X84.1827 Y15.7633
G01 X84.1690 Y15.7412
G01 X84.1603 Y15.7258
G01 X84.1487 Y15.7036
G01 X84.1377 Y15.6800
G01 X84.1287 Y15.6583
G01 X84.1207 Y15.6366
G01 X84.1123 Y15.6100
G01 X84.1076 Y15.5929
G01 X84.1022 Y15.5705
G01 X84.0969 Y15.5430
G01 X84.0938 Y15.5217
G01 X84.0912 Y15.4982
G01 X84.0899 Y15.4806
G01 X84.0890 Y15.4532
G01 X84.0893 Y15.4281
G01 X84.0907 Y15.4022
G01 X84.0930 Y15.3787
G01 X84.0962 Y15.3559
G01 X84.1013 Y15.3284
G01 X84.1052 Y15.3111
G01 X84.1110 Y15.2888
G01 X84.1193 Y15.2621
G01 X84.1266 Y15.2418
G01 X84.1371 Y15.2159
G01 X84.1487 Y15.1909
G01 X84.1603 Y15.1687
G01 X84.1690 Y15.1534
G01 X84.1827 Y15.1312
G01 X84.1976 Y15.1093
G01 X84.2160 Y15.0851
G01 X84.2330 Y15.0648
G01 X84.2546 Y15.0413
G01 X84.8168 Y14.4791
G01 X84.9689 Y14.2939
G01 X85.0682 Y14.1079
G01 X85.1295 Y13.9061
G01 X85.1529 Y13.6676
G01 X85.1529 Y11.4584
G01 X85.1295 Y11.2200
G01 X85.0682 Y11.0180
G01 X84.9689 Y10.8322
G01 X84.8169 Y10.6472
G01 X82.3168 Y8.1471
G01 X82.1319 Y7.9951
G01 X81.9458 Y7.8958
G01 X81.7439 Y7.8345
G01 X81.5056 Y7.8111
G01 X32.0716 Y7.8111
G01 X32.0510 Y7.8107
G01 X32.0267 Y7.8093
G01 X31.9999 Y7.8066
G01 X31.9794 Y7.8037
G01 X31.9529 Y7.7988
G01 X31.9313 Y7.7938
G01 X31.9148 Y7.7894
G01 X31.8891 Y7.7816
G01 X31.8681 Y7.7742
G01 X31.8471 Y7.7658
G01 X31.8242 Y7.7556
G01 X31.8026 Y7.7449
G01 X31.7877 Y7.7368
G01 X31.7661 Y7.7241
G01 X31.7459 Y7.7110
G01 X31.7289 Y7.6990
G01 X31.7076 Y7.6826
G01 X31.6895 Y7.6674
G01 X31.6779 Y7.6570
G01 X31.6586 Y7.6382
G01 X31.6433 Y7.6221
G01 X31.6293 Y7.6062
G01 X31.6152 Y7.5890
G01 X31.6058 Y7.5766
G01 X31.5918 Y7.5569
G01 X31.5805 Y7.5395
G01 X31.5632 Y7.5102
G01 X31.5488 Y7.4823
G01 X31.4866 Y7.3493
G01 X31.4769 Y7.3270
G01 X31.4666 Y7.3005
G01 X31.4563 Y7.2692
G01 X31.4487 Y7.2410
G01 X31.4445 Y7.2226
G01 X31.4403 Y7.2000
G01 X31.4357 Y7.1674
G01 X31.4331 Y7.1351
G01 X31.4322 Y7.1038
G01 X31.4331 Y7.0729
G01 X31.4356 Y7.0417
G01 X31.4394 Y7.0127
G01 X31.4449 Y6.9834
G01 X31.4521 Y6.9534
G01 X31.4572 Y6.9353
G01 X31.5492 Y6.6323
G01 X31.5769 Y6.3500
G01 X31.5492 Y6.0677
G01 X31.4668 Y5.7962
G01 X31.3332 Y5.5460
G01 X31.1532 Y5.3267
G01 X30.9340 Y5.1468
G01 X30.6838 Y5.0132
G01 X30.4123 Y4.9308
G01 X30.1300 Y4.9031
G01 X29.8477 Y4.9308
G01 X29.5764 Y5.0131
G01 X29.3904 Y5.1123
G01 X29.3722 Y5.1210
G01 X29.3574 Y5.1275
G01 X29.3410 Y5.1342
G01 X29.3194 Y5.1422
G01 X29.3040 Y5.1473
G01 X29.2800 Y5.1543
G01 X29.2604 Y5.1591
G01 X29.2359 Y5.1642
G01 X29.2200 Y5.1670
G01 X29.1971 Y5.1701
G01 X29.1751 Y5.1722
G01 X29.1521 Y5.1736
G01 X29.1241 Y5.1740
G01 X29.1064 Y5.1735
G01 X29.0805 Y5.1719
G01 X29.0512 Y5.1686
G01 X29.0270 Y5.1648
G01 X28.9995 Y5.1591
G01 X28.9729 Y5.1523
G01 X28.9504 Y5.1455
G01 X28.9300 Y5.1384
G01 X28.9135 Y5.1320
G01 X28.8918 Y5.1228
G01 X28.8703 Y5.1126
G01 X28.8565 Y5.1056
G01 X28.6836 Y5.0131
G01 X28.4123 Y4.9308
G01 X28.1300 Y4.9031
G01 X27.8477 Y4.9308
G01 X27.5689 Y5.0154
G01 X27.5497 Y5.0235
G01 X27.5346 Y5.0294
G01 X27.5128 Y5.0370
G01 X27.4945 Y5.0427
G01 X27.4693 Y5.0494
G01 X27.4520 Y5.0533
G01 X27.4274 Y5.0580
G01 X27.4016 Y5.0617
G01 X27.3826 Y5.0636
G01 X27.3664 Y5.0648
G01 X27.3448 Y5.0657
G01 X27.3271 Y5.0658
G01 X27.2937 Y5.0645
G01 X27.2585 Y5.0611
G01 X27.2255 Y5.0558
G01 X27.2082 Y5.0523
G01 X27.1871 Y5.0473
G01 X27.1715 Y5.0430
G01 X27.1532 Y5.0374
G01 X27.1217 Y5.0261
G01 X27.0945 Y5.0147
G01 X27.0697 Y5.0029
G01 X27.0438 Y4.9888
G01 X27.0190 Y4.9738
G01 X26.9946 Y4.9572
G01 X26.9726 Y4.9407
G01 X26.9500 Y4.9218
G01 X26.9270 Y4.9006
G01 X25.0035 Y2.9770
G01 X24.7990 Y2.8093
G01 X24.5906 Y2.6979
G01 X24.3647 Y2.6293
G01 X24.1015 Y2.6034
G01 X16.3485 Y2.6034
G01 X16.0853 Y2.6293
G01 X15.8594 Y2.6979
G01 X15.6510 Y2.8093
G01 X15.4465 Y2.9770
G01 X13.0819 Y5.3416
G01 X13.0669 Y5.3558
G01 X13.0491 Y5.3715
G01 X13.0320 Y5.3855
G01 X13.0136 Y5.3994
G01 X12.9906 Y5.4153
G01 X12.9769 Y5.4240
G01 X12.9570 Y5.4357
G01 X12.9376 Y5.4461
G01 X12.9115 Y5.4586
G01 X12.8788 Y5.4722
G01 X12.8515 Y5.4817
G01 X12.8190 Y5.4912
G01 X12.7980 Y5.4962
G01 X12.7807 Y5.4997
G01 X12.7521 Y5.5044
G01 X12.7199 Y5.5079
G01 X12.6888 Y5.5096
G01 X12.6733 Y5.5099
G01 X10.7400 Y5.5099
G01 X10.7400 Y7.9400
G01 X10.7397 Y7.9577
G01 X10.7386 Y7.9793
G01 X10.7365 Y8.0027
G01 X10.7343 Y8.0203
G01 X10.7309 Y8.0416
G01 X10.7267 Y8.0633
G01 X10.7213 Y8.0857
G01 X10.7170 Y8.1013
G01 X10.7095 Y8.1252
G01 X10.7028 Y8.1442
G01 X10.6935 Y8.1674
G01 X10.6863 Y8.1835
G01 X10.6769 Y8.2030
G01 X10.6665 Y8.2224
G01 X10.6549 Y8.2424
G01 X10.6454 Y8.2573
G01 X10.6321 Y8.2768
G01 X10.6193 Y8.2941
G01 X10.6017 Y8.3158
G01 X10.5864 Y8.3331
G01 X10.5742 Y8.3459
G01 X10.5563 Y8.3634
G01 X10.5414 Y8.3769
G01 X10.5222 Y8.3929
G01 X10.5094 Y8.4029
G01 X10.4907 Y8.4164
G01 X10.4723 Y8.4287
G01 X10.4526 Y8.4407
G01 X10.4385 Y8.4486
G01 X10.4163 Y8.4602
G01 X10.3981 Y8.4688
G01 X10.3751 Y8.4786
G01 X10.3600 Y8.4844
G01 X10.3382 Y8.4919
G01 X10.3170 Y8.4983
G01 X10.2961 Y8.5037
G01 X10.2630 Y8.5107
G01 X10.2344 Y8.5152
G01 X10.1992 Y8.5186
G01 X10.1688 Y8.5199
G01 X9.6766 Y8.5200
G01 X9.6590 Y8.5197
G01 X9.6374 Y8.5186
G01 X9.6022 Y8.5152
G01 X9.5707 Y8.5102
G01 X9.5405 Y8.5037
G01 X9.5196 Y8.4983
G01 X9.5027 Y8.4932
G01 X9.4725 Y8.4828
G01 X9.4439 Y8.4712
G01 X9.4137 Y8.4569
G01 X9.3865 Y8.4422
G01 X9.3693 Y8.4318
G01 X9.3496 Y8.4189
G01 X9.3237 Y8.4002
G01 X9.2953 Y8.3769
G01 X9.2814 Y8.3644
G01 X9.2681 Y8.3517
G01 X8.2894 Y7.3730
G01 X8.2751 Y7.3581
G01 X8.2583 Y7.3392
G01 X8.2444 Y7.3221
G01 X8.2305 Y7.3037
G01 X8.2211 Y7.2905
G01 X8.2075 Y7.2695
G01 X8.1971 Y7.2522
G01 X8.1858 Y7.2316
G01 X8.1779 Y7.2158
G01 X8.1689 Y7.1962
G01 X8.1615 Y7.1785
G01 X8.1557 Y7.1634
G01 X8.1486 Y7.1430
G01 X8.1430 Y7.1247
G01 X8.1387 Y7.1091
G01 X8.1334 Y7.0866
G01 X8.1291 Y7.0650
G01 X8.1255 Y7.0422
G01 X8.1235 Y7.0261
G01 X8.1213 Y7.0012
G01 X8.1204 Y6.9811
G01 X8.1200 Y6.9634
G01 X8.1200 Y5.5099
G01 X4.7400 Y5.5099
G01 X4.7400 Y7.4435
G01 X4.7396 Y7.4641
G01 X4.7386 Y7.4827
G01 X4.7365 Y7.5062
G01 X4.7320 Y7.5392
G01 X4.7276 Y7.5624
G01 X4.7241 Y7.5782
G01 X4.7182 Y7.6005
G01 X4.7132 Y7.6174
G01 X4.7023 Y7.6490
G01 X4.6935 Y7.6708
G01 X4.6869 Y7.6856
G01 X4.6769 Y7.7064
G01 X4.6686 Y7.7220
G01 X4.6526 Y7.7496
G01 X4.6355 Y7.7754
G01 X4.6147 Y7.8033
G01 X4.5939 Y7.8282
G01 X4.5707 Y7.8531
G01 X1.7975 Y10.6263
G01 X1.7869 Y10.6365
G01 X1.7687 Y10.6530
G01 X1.7495 Y10.6691
G01 X1.7288 Y10.6849
G01 X1.7155 Y10.6942
G01 X1.6946 Y10.7080
G01 X1.6760 Y10.7191
G01 X1.6514 Y10.7324
G01 X1.6307 Y10.7425
G01 X1.6145 Y10.7497
G01 X1.5885 Y10.7600
G01 X1.5667 Y10.7676
G01 X1.5441 Y10.7744
G01 X1.5232 Y10.7799
G01 X1.5059 Y10.7838
G01 X1.4813 Y10.7884
G01 X1.4555 Y10.7920
G01 X1.4262 Y10.7947
G01 X1.3987 Y10.7959
G01 X1.3692 Y10.7958
G01 X1.3403 Y10.7941
G01 X1.3110 Y10.7910
G01 X1.2838 Y10.7867
G01 X1.2549 Y10.7807
G01 X1.2255 Y10.7730
G01 X1.2002 Y10.7650
G01 X1.1702 Y10.7539
G01 X1.0474 Y10.7030
G01 X1.0286 Y10.6946
G01 X1.0279 Y10.6943
G01 X1.0259 Y10.6934
G01 X1.0157 Y10.6886
G01 X1.0026 Y10.6819
G01 X0.9768 Y10.6677
G01 X0.9535 Y10.6533
G01 X0.9293 Y10.6366
G01 X0.9074 Y10.6199
G01 X0.8849 Y10.6010
G01 X0.8649 Y10.5823
G01 X0.8433 Y10.5601
G01 X0.8252 Y10.5395
G01 X0.8141 Y10.5258
G01 X0.8011 Y10.5086
G01 X0.7836 Y10.4831
G01 X0.7692 Y10.4597
G01 X0.7537 Y10.4314
G01 X0.7418 Y10.4066
G01 X0.7303 Y10.3795
G01 X0.7204 Y10.3524
G01 X0.7117 Y10.3242
G01 X0.7049 Y10.2976
G01 X0.6990 Y10.2688
G01 X0.6942 Y10.2358
G01 X0.6911 Y10.2022
G01 X0.6900 Y10.1674
G01 X0.6900 Y4.4620
G01 X0.1298 Y12.4832
G00 Z2.0000
G00 X2.8026 Y17.6379
G01 F60.00
G01 Z-0.0500
G01 F150.00
G01 X2.7928 Y17.6375
G01 X2.7831 Y17.6360
G01 X2.7736 Y17.6336
G01 X2.7644 Y17.6303
G01 X2.7555 Y17.6261
G01 X2.7471 Y17.6211
G01 X2.7392 Y17.6152
G01 X2.7319 Y17.6086
G01 X2.7253 Y17.6014
G01 X2.7195 Y17.5935
G01 X2.7144 Y17.5851
G01 X2.7103 Y17.5762
G01 X2.7069 Y17.5670
G01 X2.7046 Y17.5574
G01 X2.7031 Y17.5477
G01 X2.7026 Y17.5379
G01 X2.7026 Y13.8539
G01 X2.7031 Y13.8441
G01 X2.7046 Y13.8344
G01 X2.7069 Y13.8249
G01 X2.7103 Y13.8157
G01 X2.7144 Y13.8068
G01 X2.7195 Y13.7984
G01 X2.7253 Y13.7905
G01 X2.7319 Y13.7832
G01 X6.1160 Y10.3994
G01 X6.1232 Y10.3928
G01 X6.1311 Y10.3870
G01 X6.1395 Y10.3819
G01 X6.1484 Y10.3777
G01 X6.1577 Y10.3744
G01 X6.1672 Y10.3721
G01 X6.1769 Y10.3706
G01 X6.1867 Y10.3701
G01 X6.6500 Y10.3701
G01 X6.6598 Y10.3706
G01 X6.6695 Y10.3721
G01 X6.6790 Y10.3744
G01 X6.6882 Y10.3777
G01 X6.6971 Y10.3819
G01 X6.7055 Y10.3870
G01 X6.7134 Y10.3928
G01 X6.7207 Y10.3994
G01 X6.7273 Y10.4067
G01 X6.7331 Y10.4146
G01 X6.7382 Y10.4230
G01 X6.7424 Y10.4319
